; HEADER_BLOCK_START
; generated by OrcaSlicer 2.3.1 on 2026-04-13 at 20:28:15
; total layer number: 100
; filament_density: 1.27
; filament_diameter: 1.75
; max_z_height: 20.00
; HEADER_BLOCK_END

; external perimeters extrusion width = 0.42mm
; perimeters extrusion width = 0.45mm
; infill extrusion width = 0.45mm
; solid infill extrusion width = 0.42mm
; top infill extrusion width = 0.42mm
; first layer extrusion width = 0.46mm

; EXECUTABLE_BLOCK_START
M201 X2500 Y2500 Z500 E5000
M203 X250 Y250 Z5 E40
M204 P2500 R500 T2500 ; sets acceleration (P, T) and retract acceleration (R), mm/sec^2
M205 X10.00 Y10.00 Z0.40 E5.00 ; sets the jerk limits, mm/sec
;TYPE:Custom
M220 S100 ;Reset Feedrate 
M221 S100 ;Reset Flowrate 
 
M104 S255 ;Set final nozzle temp 
M190 S90 ;Set and wait for bed temp to stabilize 
G28 ;Home 
G92 E0 ;Reset Extruder 
G1 Z2.0 F3000 ;Move Z Axis up 
G1 X-2.1 Y20 Z0.28 F5000.0 ;Move to start position 
M109 S255 ;Wait for nozzle temp to stabilize 
G1 X-2.1 Y145.0 Z0.28 F1500.0 E15 ;Draw the first line 
G1 X-2.4 Y145.0 Z0.28 F5000.0 ;Move to side a little 
G1 X-2.4 Y20 Z0.28 F1500.0 E30 ;Draw the second line 
G92 E0  ;Reset Extruder 
G1 E-1.0000 F1800 ;Retract a bit 
G1 Z2.0 F3000 ;Move Z Axis up 
G1 E0.0000 F1800
G90
G21
M83 ; use relative distances for extrusion
; Filament gcode
M106 S0
;LAYER_CHANGE
;Z:0.2
;HEIGHT:0.2
;BEFORE_LAYER_CHANGE
;0.2
G92 E0

G1 E-1.2 F2400
;_SET_FAN_SPEED_CHANGING_LAYER
M204 P500
; printing object Cube id:96873515803920 copy 0
M204 T500
G1 X119.331 Y119.331 F9000
G1 Z.6
G1 Z.2
G1 E1.2 F1800
;TYPE:Inner wall
;WIDTH:0.459999
G1 X100.669 Y119.331 E.64724
G1 X100.669 Y100.669 E.64724
G1 X119.331 Y100.669 E.64724
G1 X119.331 Y119.291 E.64585
G1 X119.77 Y119.77 F9000
;TYPE:Outer wall
G1 F1800
G1 X100.23 Y119.77 E.67765
G1 X100.23 Y100.23 E.67765
G1 X119.77 Y100.23 E.67765
G1 X119.77 Y119.73 E.67627
G1 E-.84 F2400
;WIPE_START
G1 F1800
G1 X118.77 Y119.732 E-.36
;WIPE_END
G1 Z.6 F9000
G1 X119.206 Y101.645 Z.6
G1 Z.2
G1 E1.2 F1800
;TYPE:Bottom surface
;WIDTH:0.463862
G1 F4800
G1 X118.543 Y100.981 E.03285
G1 X117.947 Y100.981 E.02084
G1 X119.019 Y102.053 E.05303
G1 X119.019 Y102.648 E.02084
G1 X117.352 Y100.981 E.08249
G1 X116.757 Y100.981 E.02084
G1 X119.019 Y103.243 E.11196
G1 X119.019 Y103.839 E.02084
G1 X116.161 Y100.981 E.14143
G1 X115.566 Y100.981 E.02084
G1 X119.019 Y104.434 E.1709
G1 X119.019 Y105.029 E.02084
G1 X114.971 Y100.981 E.20036
G1 X114.376 Y100.981 E.02084
G1 X119.019 Y105.624 E.22983
G1 X119.019 Y106.22 E.02084
G1 X113.78 Y100.981 E.2593
G1 X113.185 Y100.981 E.02084
G1 X119.019 Y106.815 E.28876
G1 X119.019 Y107.41 E.02084
G1 X112.59 Y100.981 E.31823
G1 X111.994 Y100.981 E.02084
G1 X119.019 Y108.006 E.3477
G1 X119.019 Y108.601 E.02084
G1 X111.399 Y100.981 E.37717
G1 X110.804 Y100.981 E.02084
G1 X119.019 Y109.196 E.40663
G1 X119.019 Y109.792 E.02084
G1 X110.208 Y100.981 E.4361
G1 X109.613 Y100.981 E.02084
G1 X119.019 Y110.387 E.46557
G1 X119.019 Y110.982 E.02084
G1 X109.018 Y100.981 E.49503
G1 X108.423 Y100.981 E.02084
G1 X119.019 Y111.577 E.5245
G1 X119.019 Y112.173 E.02084
G1 X107.827 Y100.981 E.55397
G1 X107.232 Y100.981 E.02084
G1 X119.019 Y112.768 E.58344
G1 X119.019 Y113.363 E.02084
G1 X106.637 Y100.981 E.6129
G1 X106.041 Y100.981 E.02084
G1 X119.019 Y113.959 E.64237
G1 X119.019 Y114.554 E.02084
G1 X105.446 Y100.981 E.67184
G1 X104.851 Y100.981 E.02084
G1 X119.019 Y115.149 E.7013
G1 X119.019 Y115.745 E.02084
G1 X104.255 Y100.981 E.73077
G1 X103.66 Y100.981 E.02084
G1 X119.019 Y116.34 E.76024
G1 X119.019 Y116.935 E.02084
G1 X103.065 Y100.981 E.78971
G1 X102.47 Y100.981 E.02084
G1 X119.019 Y117.53 E.81917
G1 X119.019 Y118.126 E.02084
G1 X101.874 Y100.981 E.84864
G1 X101.279 Y100.981 E.02084
G1 X119.019 Y118.721 E.87811
G1 X119.019 Y119.019 E.01042
G1 X118.721 Y119.019 E.01042
G1 X100.981 Y101.279 E.8781
G1 X100.981 Y101.874 E.02084
G1 X118.126 Y119.019 E.84864
G1 X117.53 Y119.019 E.02084
G1 X100.981 Y102.47 E.81917
G1 X100.981 Y103.065 E.02084
G1 X116.935 Y119.019 E.7897
G1 X116.34 Y119.019 E.02084
G1 X100.981 Y103.66 E.76023
G1 X100.981 Y104.256 E.02084
G1 X115.744 Y119.019 E.73077
G1 X115.149 Y119.019 E.02084
G1 X100.981 Y104.851 E.7013
G1 X100.981 Y105.446 E.02084
G1 X114.554 Y119.019 E.67183
G1 X113.959 Y119.019 E.02084
G1 X100.981 Y106.041 E.64237
G1 X100.981 Y106.637 E.02084
G1 X113.363 Y119.019 E.6129
G1 X112.768 Y119.019 E.02084
G1 X100.981 Y107.232 E.58343
G1 X100.981 Y107.827 E.02084
G1 X112.173 Y119.019 E.55396
G1 X111.577 Y119.019 E.02084
G1 X100.981 Y108.423 E.5245
G1 X100.981 Y109.018 E.02084
G1 X110.982 Y119.019 E.49503
G1 X110.387 Y119.019 E.02084
G1 X100.981 Y109.613 E.46556
G1 X100.981 Y110.209 E.02084
G1 X109.791 Y119.019 E.4361
G1 X109.196 Y119.019 E.02084
G1 X100.981 Y110.804 E.40663
G1 X100.981 Y111.399 E.02084
G1 X108.601 Y119.019 E.37716
G1 X108.006 Y119.019 E.02084
G1 X100.981 Y111.994 E.34769
G1 X100.981 Y112.59 E.02084
G1 X107.41 Y119.019 E.31823
G1 X106.815 Y119.019 E.02084
G1 X100.981 Y113.185 E.28876
G1 X100.981 Y113.78 E.02084
G1 X106.22 Y119.019 E.25929
G1 X105.624 Y119.019 E.02084
G1 X100.981 Y114.376 E.22982
G1 X100.981 Y114.971 E.02084
G1 X105.029 Y119.019 E.20036
G1 X104.434 Y119.019 E.02084
G1 X100.981 Y115.566 E.17089
G1 X100.981 Y116.162 E.02084
G1 X103.838 Y119.019 E.14142
G1 X103.243 Y119.019 E.02084
G1 X100.981 Y116.757 E.11196
G1 X100.981 Y117.352 E.02084
G1 X102.648 Y119.019 E.08249
G1 X102.053 Y119.019 E.02084
G1 X100.981 Y117.947 E.05302
G1 X100.981 Y118.543 E.02084
G1 X101.645 Y119.206 E.03284
; stop printing object Cube id:96873515803920 copy 0
;LAYER_CHANGE
;Z:0.4
;HEIGHT:0.2
;BEFORE_LAYER_CHANGE
;0.4
G92 E0

G1 E-.84 F2400
;WIPE_START
G1 F4800
G1 X100.981 Y118.543 E-.33782
G1 X100.981 Y118.481 E-.02218
;WIPE_END
;_SET_FAN_SPEED_CHANGING_LAYER
M204 P2500
M104 S245 ; set nozzle temperature
M140 S80 ; set bed temperature
; printing object Cube id:96873515803920 copy 0
M204 T2500
G17
G3 Z.8 I-.059 J1.216 P1  F9000
G1 X119.376 Y119.376 Z.8
G1 Z.4
G1 E1.2 F1800
M204 P2000
;TYPE:Inner wall
;WIDTH:0.449999
G1 F5400
G1 X100.624 Y119.376 E.63476
G1 X100.624 Y100.624 E.63476
G1 X119.376 Y100.624 E.63476
G1 X119.376 Y119.336 E.63341
G1 X119.79 Y119.79 F9000
M204 P1000
;TYPE:Outer wall
;WIDTH:0.419999
G1 F3600
G1 X100.21 Y119.79 E.61392
G1 X100.21 Y100.21 E.61392
G1 X119.79 Y100.21 E.61392
G1 X119.79 Y119.75 E.61266
G1 E-.84 F2400
;WIPE_START
G1 F3600
G1 X118.79 Y119.752 E-.36
;WIPE_END
G1 Z.8 F9000
G1 X117.743 Y118.984 Z.8
G1 Z.4
G1 E1.2 F1800
M204 P2500
;TYPE:Internal solid infill
G1 F9469
G1 X118.984 Y118.984 E.03891
G1 X118.984 Y117.743 E.03891
G1 X117.772 Y118.956 E.05377
G1 X118.643 Y118.583 F9000
;WIDTH:0.392744
G1 F9469
G1 X118.577 Y118.621 E.0022
G1 X118.645 Y118.656 E.00221
G1 X119.215 Y117.032 F9000
;WIDTH:0.421177
G1 F9469
G1 X117.202 Y119.045 E.08956
G1 X116.667 Y119.045 E.01682
G1 X119.045 Y116.667 E.10581
G1 X119.045 Y116.132 E.01682
G1 X116.132 Y119.045 E.1296
G1 X115.597 Y119.045 E.01682
G1 X119.045 Y115.597 E.1534
G1 X119.045 Y115.062 E.01682
G1 X115.062 Y119.045 E.17719
G1 X114.527 Y119.045 E.01682
G1 X119.045 Y114.527 E.20099
G1 X119.045 Y113.992 E.01682
G1 X113.992 Y119.045 E.22478
G1 X113.457 Y119.045 E.01682
G1 X119.045 Y113.457 E.24857
G1 X119.045 Y112.922 E.01682
G1 X112.922 Y119.045 E.27237
G1 X112.387 Y119.045 E.01682
G1 X119.045 Y112.387 E.29616
G1 X119.045 Y111.852 E.01682
G1 X111.852 Y119.045 E.31996
G1 X111.317 Y119.045 E.01682
G1 X119.045 Y111.317 E.34375
G1 X119.045 Y110.782 E.01682
G1 X110.782 Y119.045 E.36754
G1 X110.247 Y119.045 E.01682
G1 X119.045 Y110.247 E.39134
G1 X119.045 Y109.712 E.01682
G1 X109.712 Y119.045 E.41513
G1 X109.178 Y119.045 E.01682
G1 X119.045 Y109.178 E.43893
G1 X119.045 Y108.643 E.01682
G1 X108.643 Y119.045 E.46272
G1 X108.108 Y119.045 E.01682
G1 X119.045 Y108.108 E.48651
G1 X119.045 Y107.573 E.01682
G1 X107.573 Y119.045 E.51031
G1 X107.038 Y119.045 E.01682
G1 X119.045 Y107.038 E.5341
G1 X119.045 Y106.503 E.01682
G1 X106.503 Y119.045 E.5579
G1 X105.968 Y119.045 E.01682
G1 X119.045 Y105.968 E.58169
G1 X119.045 Y105.433 E.01682
G1 X105.433 Y119.045 E.60548
G1 X104.898 Y119.045 E.01682
G1 X119.045 Y104.898 E.62928
G1 X119.045 Y104.363 E.01682
G1 X104.363 Y119.045 E.65307
G1 X103.828 Y119.045 E.01682
G1 X119.045 Y103.828 E.67687
G1 X119.045 Y103.293 E.01682
G1 X103.293 Y119.045 E.70066
G1 X102.758 Y119.045 E.01682
G1 X119.045 Y102.758 E.72445
G1 X119.045 Y102.223 E.01682
G1 X102.223 Y119.045 E.74825
G1 X101.688 Y119.045 E.01682
G1 X119.045 Y101.688 E.77204
G1 X119.045 Y101.154 E.01682
G1 X101.154 Y119.045 E.79584
G1 X100.955 Y119.045 E.00626
G1 X100.955 Y118.709 E.01057
G1 X118.709 Y100.955 E.78974
G1 X118.175 Y100.955 E.01682
G1 X100.955 Y118.175 E.76595
G1 X100.955 Y117.64 E.01682
G1 X117.64 Y100.955 E.74215
G1 X117.105 Y100.955 E.01682
G1 X100.955 Y117.105 E.71836
G1 X100.955 Y116.57 E.01682
G1 X116.57 Y100.955 E.69456
G1 X116.035 Y100.955 E.01682
G1 X100.955 Y116.035 E.67077
G1 X100.955 Y115.5 E.01682
G1 X115.5 Y100.955 E.64698
G1 X114.965 Y100.955 E.01682
G1 X100.955 Y114.965 E.62318
G1 X100.955 Y114.43 E.01682
G1 X114.43 Y100.955 E.59939
G1 X113.895 Y100.955 E.01682
G1 X100.955 Y113.895 E.57559
G1 X100.955 Y113.36 E.01682
G1 X113.36 Y100.955 E.5518
G1 X112.825 Y100.955 E.01682
G1 X100.955 Y112.825 E.52801
G1 X100.955 Y112.29 E.01682
G1 X112.29 Y100.955 E.50421
G1 X111.755 Y100.955 E.01682
G1 X100.955 Y111.755 E.48042
G1 X100.955 Y111.22 E.01682
G1 X111.22 Y100.955 E.45662
G1 X110.685 Y100.955 E.01682
G1 X100.955 Y110.685 E.43283
G1 X100.955 Y110.15 E.01682
G1 X110.15 Y100.955 E.40904
G1 X109.616 Y100.955 E.01682
G1 X100.955 Y109.616 E.38524
G1 X100.955 Y109.081 E.01682
G1 X109.081 Y100.955 E.36145
G1 X108.546 Y100.955 E.01682
G1 X100.955 Y108.546 E.33765
G1 X100.955 Y108.011 E.01682
G1 X108.011 Y100.955 E.31386
G1 X107.476 Y100.955 E.01682
G1 X100.955 Y107.476 E.29007
G1 X100.955 Y106.941 E.01682
G1 X106.941 Y100.955 E.26627
G1 X106.406 Y100.955 E.01682
G1 X100.955 Y106.406 E.24248
G1 X100.955 Y105.871 E.01682
G1 X105.871 Y100.955 E.21868
G1 X105.336 Y100.955 E.01682
G1 X100.955 Y105.336 E.19489
G1 X100.955 Y104.801 E.01682
G1 X104.801 Y100.955 E.1711
G1 X104.266 Y100.955 E.01682
G1 X100.955 Y104.266 E.1473
G1 X100.955 Y103.731 E.01682
G1 X103.731 Y100.955 E.12351
G1 X103.196 Y100.955 E.01682
G1 X100.955 Y103.196 E.09971
G1 X100.955 Y102.661 E.01682
G1 X102.661 Y100.955 E.07592
G1 X102.126 Y100.955 E.01682
G1 X100.955 Y102.126 E.05213
G1 X100.955 Y101.592 E.01682
G1 X101.761 Y100.785 E.03588
G1 X101.05 Y100.983 F9000
;WIDTH:0.439956
G1 F9067.188
G1 X100.976 Y101.026 E.00284
G1 X101.055 Y101.06 E.00286
; stop printing object Cube id:96873515803920 copy 0
;LAYER_CHANGE
;Z:0.6
;HEIGHT:0.2
;BEFORE_LAYER_CHANGE
;0.6
G92 E0

G1 E-1.15435 F2400
;WIPE_START
G1 F9067.188
G1 X100.976 Y101.026 E-.0229
G1 X101.05 Y100.983 E-.02275
;WIPE_END
;_SET_FAN_SPEED_CHANGING_LAYER
; printing object Cube id:96873515803920 copy 0
G17
G3 Z1 I-.862 J.859 P1  F9000
G1 X119.376 Y119.376 Z1
G1 Z.6
G1 E1.2 F1800
M204 P2000
;TYPE:Inner wall
;WIDTH:0.449999
G1 F5400
G1 X100.624 Y119.376 E.63476
G1 X100.624 Y100.624 E.63476
G1 X119.376 Y100.624 E.63476
G1 X119.376 Y119.336 E.63341
G1 X119.79 Y119.79 F9000
M204 P1000
;TYPE:Outer wall
;WIDTH:0.419999
G1 F3600
G1 X100.21 Y119.79 E.61392
G1 X100.21 Y100.21 E.61392
G1 X119.79 Y100.21 E.61392
G1 X119.79 Y119.75 E.61266
G1 E-.84 F2400
;WIPE_START
G1 F3600
G1 X118.79 Y119.752 E-.36
;WIPE_END
G1 Z1 F9000
G1 X118.586 Y117.795 Z1
G1 Z.6
G1 E1.2 F1800
M204 P2500
;TYPE:Internal solid infill
;WIDTH:0.462529
G1 F8579.416
G1 X118.237 Y118.22 E.01919
G1 X117.812 Y118.585 E.01953
G1 X118.586 Y118.586 E.027
G1 X118.586 Y117.835 E.02621
G1 X114.931 Y118.505 F9000
;WIDTH:0.362695
G1 F10800
G1 X115.357 Y118.931 E.01601
G1 X115.367 Y119.01 E.00214
G1 X116.098 Y119.021 E.01944
G1 X116.658 Y119.003 E.01488
;WIDTH:0.417524
G1 F9610.167
G1 X117.226 Y118.984 E.01773
G1 X118.984 Y118.984 E.05476
G1 X118.984 Y116.988 E.06218
;WIDTH:0.406601
G1 F9898.806
G1 X118.998 Y116.737 E.00759
;WIDTH:0.360144
G1 F10800
G1 X119.018 Y116.036 E.0185
G1 X118.938 Y116.028 E.00211
G1 X118.713 Y115.813 E.00821
G1 X118.697 Y116.414 E.01585
;WIDTH:0.375364
G1 X118.645 Y116.676 E.00738
;WIDTH:0.415795
G1 F9654.708
G1 X118.594 Y116.938 E.00828
G1 X118.362 Y117.425 E.01673
G1 X118.041 Y117.856 E.01666
G1 X117.64 Y118.218 E.01677
G1 X117.178 Y118.494 E.01666
G1 X116.667 Y118.66 E.01667
;WIDTH:0.365107
G1 F10800
G1 X116.135 Y118.718 E.01433
G1 X115.605 Y118.699 E.01421
G1 X115.089 Y118.576 E.01422
G1 X114.968 Y118.521 E.00356
G1 X113.554 Y116.909 F9000
;WIDTH:0.38292
G1 F10588.235
G1 X113.599 Y117.145 E.00679
G1 X113.591 Y117.21 E.00184
G1 X114.223 Y117.941 E.02732
G1 X114.589 Y118.258 E.01369
G1 E-.97333 F2400
;WIPE_START
G1 F10588.235
G1 X114.223 Y117.941 E-.10977
G1 X113.886 Y117.551 E-.11689
;WIPE_END
G17
G3 Z1 I.949 J.762 P1  F9000
G1 X117.014 Y113.658 Z1
G1 Z.6
G1 E1.2 F1800
;TYPE:Top surface
;WIDTH:0.438293
G1 F3000
G1 X118.341 Y114.985 E.06168
G1 X118.538 Y115.741 F9000
G1 F3000
G1 X116.258 Y113.461 E.10601
G1 X115.704 Y113.467 F9000
G1 F3000
G1 X118.534 Y116.297 E.13157
G1 X118.435 Y116.757 F9000
G1 F3000
G1 X115.242 Y113.564 E.14847
G1 X114.844 Y113.725 F9000
G1 F3000
G1 X118.275 Y117.156 E.1595
G1 X118.063 Y117.503 F9000
G1 F3000
G1 X114.498 Y113.938 E.16572
G1 X114.196 Y114.195 F9000
G1 F3000
G1 X117.804 Y117.803 E.16773
G1 X117.504 Y118.062 F9000
G1 F3000
G1 X113.939 Y114.497 E.16573
G1 X113.727 Y114.844 F9000
G1 F3000
G1 X117.157 Y118.274 E.15948
G1 X116.759 Y118.435 F9000
G1 F3000
G1 X113.565 Y115.242 E.14848
G1 X113.466 Y115.702 F9000
G1 F3000
G1 X116.297 Y118.533 E.13163
G1 X115.743 Y118.538 F9000
G1 F3000
G1 X113.462 Y116.257 E.10605
G1 X113.66 Y117.014 F9000
G1 F3000
G1 X114.986 Y118.34 E.06169
G1 X105.014 Y113.658 F9000
;WIDTH:0.438295
G1 F3000
G1 X106.341 Y114.985 E.06167
G1 X106.538 Y115.741 F9000
G1 F3000
G1 X104.258 Y113.461 E.10601
G1 X103.704 Y113.467 F9000
G1 F3000
G1 X106.534 Y116.297 E.13157
G1 X106.436 Y116.757 F9000
G1 F3000
G1 X103.242 Y113.564 E.14848
G1 X102.844 Y113.725 F9000
G1 F3000
G1 X106.274 Y117.155 E.15945
G1 X106.063 Y117.503 F9000
G1 F3000
G1 X102.498 Y113.938 E.16573
G1 X102.196 Y114.195 F9000
G1 F3000
G1 X105.804 Y117.803 E.16773
G1 X105.504 Y118.062 F9000
G1 F3000
G1 X101.939 Y114.497 E.16573
G1 X101.727 Y114.844 F9000
G1 F3000
G1 X105.157 Y118.274 E.15949
G1 X104.759 Y118.435 F9000
G1 F3000
G1 X101.565 Y115.241 E.14848
G1 X101.466 Y115.702 F9000
G1 F3000
G1 X104.298 Y118.534 E.13166
G1 X103.743 Y118.538 F9000
G1 F3000
G1 X101.462 Y116.257 E.10604
G1 X101.66 Y117.014 F9000
G1 F3000
G1 X102.986 Y118.34 E.06169
G1 X101.414 Y117.794 F9000
;TYPE:Internal solid infill
;WIDTH:0.463353
G1 F8562.601
G1 X101.414 Y118.586 E.02768
G1 X102.198 Y118.586 E.02738
G1 X101.766 Y118.22 E.01976
G1 X101.44 Y117.825 E.01793
G1 X102.13 Y113.082 F9000
;WIDTH:0.349758
G1 F10800
G1 X101.735 Y112.687 E.01426
G1 X101.735 Y113.366 E.01733
G1 X102.097 Y113.106 E.0114
G1 X102.691 Y113.16 F9000
;WIDTH:0.419999
G1 F9547.071
G1 X101.393 Y111.862 E.05755
G1 X101.393 Y114.279 E.0758
G1 X101.628 Y113.951 E.01266
G1 X101.985 Y113.599 E.01572
G1 X102.498 Y113.249 E.01947
G1 X102.654 Y113.176 E.0054
G1 X103.385 Y113.321 F9000
;WIDTH:0.419202
G1 F9567.311
G1 X101.016 Y110.951 E.10485
G1 X101.005 Y115.173 E.13209
;WIDTH:0.386679
G1 F10472.454
G1 X100.993 Y115.48 E.00879
;WIDTH:0.356364
G1 F10800
G1 X100.985 Y116.389 E.02368
;WIDTH:0.373721
G1 X101 Y116.67 E.00777
;WIDTH:0.417454
G1 F9611.958
G1 X101.016 Y116.952 E.00879
G1 X101.016 Y118.984 E.06328
G1 X103.247 Y118.999 E.06948
;WIDTH:0.361106
G1 F10800
G1 X103.817 Y119.021 E.01511
G1 X104.378 Y119.016 E.01483
;WIDTH:0.372868
G1 X104.659 Y119 E.00774
;WIDTH:0.419577
G1 F9557.789
G1 X104.941 Y118.984 E.00884
G1 X109.049 Y118.984 E.12865
G1 X106.684 Y116.62 E.10472
G1 X106.495 Y117.176 E.01839
G1 X106.213 Y117.646 E.01717
G1 X105.852 Y118.044 E.01682
G1 X105.421 Y118.364 E.01682
G1 X104.931 Y118.597 E.01699
;WIDTH:0.405645
G1 F9924.896
G1 X104.666 Y118.648 E.00813
;WIDTH:0.363509
G1 F10800
G1 X104.402 Y118.7 E.00718
