; HEADER_BLOCK_START
; generated by OrcaSlicer 2.3.1 on 2026-04-22 at 01:01:01
; total layer number: 90
; filament_density: 1.27
; filament_diameter: 1.75
; max_z_height: 18.00
; HEADER_BLOCK_END

; external perimeters extrusion width = 0.42mm
; perimeters extrusion width = 0.45mm
; infill extrusion width = 0.45mm
; solid infill extrusion width = 0.42mm
; top infill extrusion width = 0.42mm
; first layer extrusion width = 0.46mm

; EXECUTABLE_BLOCK_START
M201 X2500 Y2500 Z500 E5000
M203 X250 Y250 Z5 E40
M204 P2500 R500 T2500 ; sets acceleration (P, T) and retract acceleration (R), mm/sec^2
M205 X10.00 Y10.00 Z0.40 E5.00 ; sets the jerk limits, mm/sec
;TYPE:Custom
M220 S100 ;Reset Feedrate 
M221 S100 ;Reset Flowrate 
 
M104 S255 ;Set final nozzle temp 
M190 S90 ;Set and wait for bed temp to stabilize 
G28 ;Home 
G92 E0 ;Reset Extruder 
G1 Z2.0 F3000 ;Move Z Axis up 
G1 X-2.1 Y20 Z0.28 F5000.0 ;Move to start position 
M109 S255 ;Wait for nozzle temp to stabilize 
G1 X-2.1 Y145.0 Z0.28 F1500.0 E15 ;Draw the first line 
G1 X-2.4 Y145.0 Z0.28 F5000.0 ;Move to side a little 
G1 X-2.4 Y20 Z0.28 F1500.0 E30 ;Draw the second line 
G92 E0  ;Reset Extruder 
G1 E-1.0000 F1800 ;Retract a bit 
G1 Z2.0 F3000 ;Move Z Axis up 
G1 E0.0000 F1800
G90
G21
M83 ; use relative distances for extrusion
; Filament gcode
M106 S0
;LAYER_CHANGE
;Z:0.2
;HEIGHT:0.2
;BEFORE_LAYER_CHANGE
;0.2
G92 E0

G1 E-1.2 F2400
;_SET_FAN_SPEED_CHANGING_LAYER
M204 P500
; printing object Cube id:105605906002848 copy 0
M204 T500
G1 X110.527 Y120.628 F9000
G1 Z.6
G1 Z.2
G1 E1.2 F1800
;TYPE:Inner wall
;WIDTH:0.459999
G1 X93.864 Y120.628 E.57787
G1 X93.864 Y103.965 E.57787
G1 X110.527 Y103.965 E.57787
G1 X110.527 Y120.588 E.57649
G1 X110.966 Y121.067 F9000
;TYPE:Outer wall
G1 F1800
G1 X93.426 Y121.067 E.60829
G1 X93.426 Y103.527 E.60829
G1 X110.966 Y103.527 E.60829
G1 X110.966 Y121.027 E.6069
G1 E-.84 F2400
;WIPE_START
G1 F1800
G1 X109.966 Y121.029 E-.36
;WIPE_END
G17
G3 Z.6 I.923 J-.794 P1  F9000
G1 X100.002 Y109.443 Z.6
G1 Z.2
G1 E1.2 F1800
;TYPE:Inner wall
G1 X100.146 Y109.458 E.00503
G1 X100.657 Y109.392 E.01788
G1 X100.978 Y109.278 E.01183
G1 X101.448 Y109.016 E.01863
G1 X101.789 Y108.703 E.01607
G1 X102.065 Y108.318 E.01642
G1 X102.197 Y108.036 E.01082
G1 X102.263 Y108.2 E.00612
G1 X102.476 Y108.549 E.01419
G1 X102.789 Y108.89 E.01605
G1 X103.116 Y109.132 E.0141
G1 X103.515 Y109.323 E.01533
G1 X103.993 Y109.443 E.01712
G1 X104.4 Y109.461 E.0141
G1 X104.857 Y109.392 E.01605
G1 X105.24 Y109.253 E.01413
G1 X105.136 Y109.509 E.00959
G1 X105.041 Y109.948 E.01557
G1 X105.05 Y110.5 E.01915
G1 X105.193 Y111.033 E.01914
G1 X105.476 Y111.549 E.02044
G1 X105.789 Y111.89 E.01605
G1 X106.174 Y112.166 E.01643
G1 X106.461 Y112.297 E.01091
G1 X106.293 Y112.364 E.00628
G1 X105.944 Y112.577 E.01419
G1 X105.602 Y112.891 E.01607
G1 X105.326 Y113.275 E.01643
G1 X105.136 Y113.709 E.01642
G1 X105.047 Y114.106 E.0141
G1 X105.036 Y114.569 E.01604
G1 X105.12 Y115.031 E.01631
G1 X105.24 Y115.343 E.01159
G1 X105.058 Y115.262 E.0069
G1 X104.598 Y115.151 E.01642
G1 X104.192 Y115.132 E.0141
G1 X103.734 Y115.201 E.01604
G1 X103.416 Y115.315 E.0117
G1 X102.943 Y115.578 E.01877
G1 X102.602 Y115.891 E.01605
G1 X102.326 Y116.275 E.01643
G1 X102.196 Y116.562 E.01091
G1 X102.128 Y116.394 E.00628
G1 X101.915 Y116.045 E.01419
G1 X101.602 Y115.704 E.01605
G1 X101.276 Y115.461 E.0141
G1 X100.876 Y115.27 E.01537
G1 X100.398 Y115.151 E.01708
G1 X99.992 Y115.132 E.0141
G1 X99.534 Y115.201 E.01605
G1 X99.153 Y115.34 E.01407
G1 X99.234 Y115.149 E.00723
G1 X99.342 Y114.699 E.01603
G1 X99.36 Y114.293 E.0141
G1 X99.291 Y113.835 E.01604
G1 X99.181 Y113.526 E.01138
G1 X98.979 Y113.143 E.01504
G1 X98.604 Y112.706 E.01995
G1 X98.276 Y112.461 E.01419
G1 X97.933 Y112.296 E.01322
G1 X98.282 Y112.124 E.01352
G1 X98.744 Y111.753 E.02051
G1 X99.025 Y111.386 E.01604
G1 X99.221 Y110.978 E.01571
G1 X99.342 Y110.499 E.01713
G1 X99.359 Y110.154 E.01197
G1 X99.302 Y109.694 E.01607
G1 X99.151 Y109.252 E.01619
G1 X99.578 Y109.398 E.01562
G1 X99.962 Y109.439 E.0134
G1 E-.84 F2400
;WIPE_START
G1 F1800
G1 X100.146 Y109.458 E-.06662
G1 X100.657 Y109.392 E-.1856
G1 X100.939 Y109.292 E-.10778
;WIPE_END
G17
G3 Z.6 I-.658 J-1.024 P1  F9000
G1 X96.261 Y112.297 Z.6
G1 Z.2
G1 E1.2 F1800
G1 X95.974 Y112.166 E.01091
G1 X95.589 Y111.89 E.01643
G1 X95.276 Y111.549 E.01605
G1 X95.069 Y111.212 E.01374
G1 X94.92 Y110.831 E.01417
G1 X94.85 Y110.498 E.01181
G1 X94.847 Y109.906 E.02054
G1 X94.936 Y109.509 E.0141
G1 X95.126 Y109.075 E.01642
G1 X95.402 Y108.691 E.01643
G1 X95.743 Y108.378 E.01604
G1 X96.09 Y108.166 E.01411
G1 X96.534 Y108.001 E.01642
G1 X96.992 Y107.932 E.01604
G1 X97.398 Y107.951 E.0141
G1 X97.858 Y108.062 E.01642
G1 X98.04 Y108.143 E.0069
G1 X97.92 Y107.831 E.01159
G1 X97.836 Y107.369 E.01631
G1 X97.848 Y106.905 E.01607
G1 X97.937 Y106.506 E.01419
G1 X98.126 Y106.075 E.01632
G1 X98.402 Y105.691 E.01643
G1 X98.743 Y105.378 E.01605
G1 X99.09 Y105.166 E.01411
G1 X99.534 Y105.001 E.01642
G1 X99.992 Y104.932 E.01604
G1 X100.398 Y104.951 E.0141
G1 X100.858 Y105.062 E.01642
G1 X101.276 Y105.261 E.01604
G1 X101.602 Y105.504 E.0141
G1 X101.915 Y105.845 E.01605
G1 X102.128 Y106.194 E.01419
G1 X102.196 Y106.362 E.00628
G1 X102.326 Y106.075 E.01091
G1 X102.602 Y105.691 E.01643
G1 X102.943 Y105.378 E.01605
G1 X103.29 Y105.166 E.01411
G1 X103.734 Y105.001 E.01642
G1 X104.192 Y104.932 E.01604
G1 X104.598 Y104.951 E.0141
G1 X105.058 Y105.062 E.01642
G1 X105.476 Y105.261 E.01604
G1 X105.802 Y105.504 E.0141
G1 X106.115 Y105.844 E.01603
G1 X106.327 Y106.191 E.01411
G1 X106.491 Y106.635 E.01642
G1 X106.56 Y107.093 E.01604
G1 X106.542 Y107.499 E.0141
G1 X106.434 Y107.949 E.01603
G1 X106.353 Y108.14 E.00723
G1 X106.734 Y108.001 E.01407
G1 X107.192 Y107.932 E.01604
G1 X107.598 Y107.951 E.0141
G1 X108.058 Y108.062 E.01642
G1 X108.476 Y108.261 E.01607
G1 X108.804 Y108.506 E.01419
G1 X109.115 Y108.844 E.01593
G1 X109.327 Y109.191 E.0141
G1 X109.491 Y109.635 E.01642
G1 X109.56 Y110.093 E.01605
G1 X109.542 Y110.499 E.0141
G1 X109.434 Y110.949 E.01603
G1 X109.265 Y111.318 E.0141
G1 X108.989 Y111.703 E.01642
G1 X108.648 Y112.016 E.01607
G1 X108.298 Y112.229 E.01419
G1 X108.133 Y112.296 E.00619
G1 X108.476 Y112.461 E.01322
G1 X108.804 Y112.706 E.01419
G1 X109.115 Y113.044 E.01593
G1 X109.327 Y113.391 E.0141
G1 X109.491 Y113.835 E.01642
G1 X109.557 Y114.347 E.01788
G1 X109.497 Y114.915 E.01982
G1 X109.327 Y115.403 E.01792
G1 X108.997 Y115.895 E.02055
G1 X108.701 Y116.174 E.0141
G1 X108.301 Y116.428 E.01642
G1 X107.857 Y116.592 E.01643
G1 X107.346 Y116.658 E.01788
G1 X106.778 Y116.598 E.01982
G1 X106.351 Y116.452 E.01562
G1 X106.502 Y116.894 E.01619
G1 X106.559 Y117.354 E.01607
G1 X106.542 Y117.699 E.01197
G1 X106.434 Y118.149 E.01603
G1 X106.265 Y118.518 E.0141
G1 X105.989 Y118.903 E.01642
G1 X105.648 Y119.216 E.01605
G1 X105.301 Y119.428 E.0141
G1 X104.857 Y119.592 E.01642
G1 X104.4 Y119.661 E.01605
G1 X103.993 Y119.643 E.0141
G1 X103.533 Y119.531 E.01642
G1 X103.116 Y119.332 E.01605
G1 X102.789 Y119.09 E.0141
G1 X102.476 Y118.749 E.01605
G1 X102.263 Y118.4 E.01419
G1 X102.197 Y118.236 E.00612
G1 X102.065 Y118.518 E.01082
G1 X101.789 Y118.903 E.01642
G1 X101.439 Y119.222 E.01643
G1 X101.041 Y119.457 E.01604
G1 X100.657 Y119.592 E.0141
G1 X100.146 Y119.658 E.01787
G1 X99.578 Y119.598 E.01982
G1 X99.09 Y119.428 E.01792
G1 X98.589 Y119.09 E.02093
G1 X98.276 Y118.749 E.01605
G1 X98.069 Y118.412 E.01374
G1 X97.92 Y118.031 E.01417
G1 X97.836 Y117.569 E.01631
G1 X97.848 Y117.105 E.01607
G1 X97.937 Y116.706 E.01419
G1 X98.04 Y116.453 E.00949
G1 X97.657 Y116.592 E.01412
G1 X97.146 Y116.658 E.01788
G1 X96.578 Y116.598 E.01982
G1 X96.09 Y116.428 E.01792
G1 X95.589 Y116.09 E.02093
G1 X95.276 Y115.749 E.01605
G1 X95.069 Y115.412 E.01374
G1 X94.92 Y115.031 E.01417
G1 X94.836 Y114.569 E.01631
G1 X94.847 Y114.106 E.01604
G1 X94.936 Y113.709 E.0141
G1 X95.126 Y113.275 E.01642
G1 X95.402 Y112.891 E.01643
G1 X95.744 Y112.577 E.01607
G1 X96.093 Y112.364 E.01419
G1 X96.224 Y112.312 E.00489
G1 X96.947 Y112.032 F9000
;TYPE:Outer wall
;WIDTH:0.505484
G1 F1800
G1 X96.573 Y111.95 E.01473
;WIDTH:0.459999
G1 X96.22 Y111.803 E.01326
G1 X95.905 Y111.585 E.01326
G1 X95.644 Y111.311 E.01314
G1 X95.473 Y111.041 E.01108
G1 X95.349 Y110.74 E.01127
G1 X95.279 Y110.407 E.01181
G1 X95.278 Y109.99 E.01448
G1 X95.343 Y109.673 E.0112
G1 X95.49 Y109.321 E.01325
G1 X95.707 Y109.006 E.01326
G1 X95.982 Y108.745 E.01314
G1 X96.255 Y108.572 E.0112
G1 X96.61 Y108.433 E.01325
G1 X96.984 Y108.371 E.01314
G1 X97.307 Y108.38 E.0112
G1 X97.68 Y108.463 E.01325
;WIDTH:0.487595
G1 X97.946 Y108.591 E.01094
;WIDTH:0.515191
G1 X98.213 Y108.719 E.01162
;WIDTH:0.528807
G1 X98.558 Y109.041 E.01905
G1 X98.703 Y109.357 E.01407
;WIDTH:0.494403
G1 X98.849 Y109.674 E.01308
;WIDTH:0.459999
G1 X98.921 Y110.147 E.01659
G1 X98.869 Y110.614 E.01631
G1 X98.69 Y111.094 E.01779
G1 X98.445 Y111.433 E.01449
G1 X98.044 Y111.755 E.01784
;WIDTH:0.470911
G1 X97.569 Y111.968 E.01851
;WIDTH:0.505484
G1 X97.003 Y112.045 E.02199
G1 X96.986 Y112.041 E.00066
G1 E-.84 F2400
;WIPE_START
G1 F1800
G1 X96.573 Y111.95 E-.15228
G1 X96.22 Y111.803 E-.13768
G1 X96.06 Y111.692 E-.07004
;WIPE_END
G17
G3 Z.6 I-1.177 J.309 P1  F9000
G1 X97.247 Y116.212 Z.6
G1 Z.2
G1 E1.2 F1800
;WIDTH:0.459999
G1 X97.192 Y116.222 E.00194
G1 X96.623 Y116.162 E.01982
G1 X96.22 Y116.003 E.01505
G1 X95.905 Y115.785 E.01326
G1 X95.644 Y115.511 E.01314
G1 X95.473 Y115.241 E.01108
G1 X95.349 Y114.94 E.01127
G1 X95.274 Y114.569 E.01316
G1 X95.278 Y114.19 E.01314
G1 X95.343 Y113.873 E.0112
G1 X95.49 Y113.521 E.01325
G1 X95.707 Y113.206 E.01326
G1 X95.954 Y112.968 E.0119
G1 X96.257 Y112.771 E.01253
;WIDTH:0.46121
G1 X96.61 Y112.632 E.0132
;WIDTH:0.505484
G1 X97.025 Y112.549 E.01626
;WIDTH:0.506485
G1 X97.312 Y112.557 E.01106
G1 X97.918 Y112.769 E.02475
;WIDTH:0.459999
G1 X98.289 Y113.01 E.01535
G1 X98.611 Y113.381 E.01705
G1 X98.849 Y113.874 E.01896
G1 X98.922 Y114.285 E.01449
G1 X98.913 Y114.608 E.0112
G1 X98.831 Y114.977 E.01313
;WIDTH:0.487539
G1 X98.7 Y115.248 E.0111
;WIDTH:0.515079
G1 X98.57 Y115.518 E.01179
;WIDTH:0.528807
G1 X98.252 Y115.859 E.01884
G1 X97.937 Y116.004 E.014
;WIDTH:0.494403
G1 X97.622 Y116.148 E.01301
;WIDTH:0.459999
G1 X97.286 Y116.206 E.01182
G1 E-.84 F2400
;WIPE_START
G1 F1800
G1 X97.192 Y116.222 E-.03451
G1 X96.623 Y116.162 E-.2057
G1 X96.314 Y116.04 E-.1198
;WIPE_END
G17
G3 Z.6 I1.075 J.571 P1  F9000
G1 X100.047 Y109.007 Z.6
G1 Z.2
G1 E1.2 F1800
G1 X99.623 Y108.962 E.01479
;WIDTH:0.464893
G1 X99.218 Y108.805 E.01525
;WIDTH:0.497316
G1 X99.049 Y108.707 E.00738
;WIDTH:0.529738
G1 X98.88 Y108.61 E.00791
G1 X98.621 Y108.326 E.01556
;WIDTH:0.515191
G1 X98.494 Y108.057 E.01166
;WIDTH:0.487595
G1 X98.366 Y107.789 E.01098
;WIDTH:0.459999
G1 X98.274 Y107.369 E.01493
G1 X98.278 Y106.989 E.01315
G1 X98.344 Y106.671 E.01128
G1 X98.49 Y106.321 E.01316
G1 X98.707 Y106.006 E.01326
G1 X98.982 Y105.745 E.01314
G1 X99.255 Y105.572 E.0112
G1 X99.61 Y105.433 E.01325
G1 X99.984 Y105.371 E.01314
G1 X100.307 Y105.38 E.0112
G1 X100.68 Y105.463 E.01325
G1 X101.024 Y105.62 E.01314
G1 X101.287 Y105.808 E.0112
G1 X101.547 Y106.083 E.01313
G1 X101.721 Y106.358 E.01128
;WIDTH:0.497078
G1 X101.926 Y106.981 E.02478
;WIDTH:0.503167
G1 X101.934 Y107.412 E.01649
G1 X101.725 Y108.027 E.02485
;WIDTH:0.459999
G1 X101.484 Y108.388 E.01503
G1 X101.08 Y108.732 E.01843
G1 X100.619 Y108.95 E.01769
G1 X100.13 Y109.015 E.01708
G1 X100.087 Y109.011 E.00151
G1 E-.84 F2400
;WIPE_START
G1 F1800
G1 X99.623 Y108.962 E-.16788
G1 X99.218 Y108.805 E-.15645
G1 X99.132 Y108.755 E-.03567
;WIPE_END
G17
G3 Z.6 I-.06 J1.216 P1  F9000
G1 X104.448 Y109.016 Z.6
G1 Z.2
G1 E1.2 F1800
G1 X104.407 Y109.023 E.00144
G1 X104.085 Y109.014 E.0112
G1 X103.575 Y108.869 E.01838
G1 X103.132 Y108.608 E.01782
G1 X102.844 Y108.31 E.01437
G1 X102.67 Y108.035 E.01128
;WIDTH:0.503167
G1 X102.458 Y107.417 E.02502
G1 X102.46 Y106.986 E.01648
;WIDTH:0.497078
G1 X102.67 Y106.358 E.025
;WIDTH:0.459999
G1 X102.907 Y106.006 E.01472
G1 X103.182 Y105.745 E.01314
G1 X103.455 Y105.572 E.0112
G1 X103.81 Y105.433 E.01325
G1 X104.184 Y105.371 E.01314
G1 X104.507 Y105.38 E.0112
G1 X104.88 Y105.463 E.01325
G1 X105.224 Y105.62 E.01314
G1 X105.487 Y105.808 E.0112
G1 X105.747 Y106.083 E.01313
G1 X105.92 Y106.356 E.0112
G1 X106.059 Y106.711 E.01325
G1 X106.119 Y107.267 E.01939
G1 X106.037 Y107.761 E.01735
;WIDTH:0.487539
G1 X105.903 Y108.039 E.01142
;WIDTH:0.515079
G1 X105.77 Y108.318 E.01212
;WIDTH:0.528808
G1 X105.452 Y108.659 E.01884
G1 X105.136 Y108.804 E.01406
;WIDTH:0.494404
G1 X104.819 Y108.949 E.01306
;WIDTH:0.459999
G1 X104.488 Y109.009 E.01168
G1 E-.84 F2400
;WIPE_START
G1 F1800
G1 X104.407 Y109.023 E-.02937
G1 X104.085 Y109.014 E-.11624
G1 X103.575 Y108.869 E-.1908
G1 X103.518 Y108.836 E-.0236
;WIPE_END
G17
G3 Z.6 I-.805 J.912 P1  F9000
G1 X107.135 Y112.03 Z.6
G1 Z.2
G1 E1.2 F1800
;WIDTH:0.505484
G1 X106.773 Y111.95 E.01428
;WIDTH:0.459999
G1 X106.42 Y111.803 E.01326
G1 X106.105 Y111.585 E.01326
G1 X105.844 Y111.311 E.01314
G1 X105.597 Y110.862 E.01777
G1 X105.474 Y110.372 E.01752
G1 X105.478 Y109.99 E.01325
G1 X105.543 Y109.673 E.0112
;WIDTH:0.488203
G1 X105.682 Y109.375 E.0122
;WIDTH:0.516406
G1 X105.821 Y109.076 E.01298
;WIDTH:0.527306
G1 X106.14 Y108.735 E.01881
G1 X106.425 Y108.602 E.01267
;WIDTH:0.493653
G1 X106.71 Y108.469 E.01179
;WIDTH:0.459999
G1 X107.184 Y108.371 E.01677
G1 X107.713 Y108.424 E.01843
G1 X108.193 Y108.603 E.01777
G1 X108.489 Y108.81 E.01253
G1 X108.747 Y109.083 E.01303
G1 X108.92 Y109.356 E.0112
G1 X109.059 Y109.711 E.01325
G1 X109.122 Y110.085 E.01314
G1 X109.113 Y110.408 E.0112
G1 X109.031 Y110.777 E.01313
G1 X108.901 Y111.073 E.0112
G1 X108.684 Y111.388 E.01325
G1 X108.409 Y111.648 E.01315
G1 X108.134 Y111.822 E.01128
;WIDTH:0.470911
G1 X107.769 Y111.968 E.01399
;WIDTH:0.505484
G1 X107.203 Y112.045 E.02199
G1 X107.174 Y112.038 E.00112
G1 E-.84 F2400
;WIPE_START
G1 F1800
G1 X106.773 Y111.95 E-.14805
G1 X106.42 Y111.803 E-.13768
G1 X106.25 Y111.685 E-.07427
;WIPE_END
G17
G3 Z.6 I-1.188 J.264 P1  F9000
G1 X107.254 Y116.207 Z.6
G1 Z.2
G1 E1.2 F1800
;WIDTH:0.459999
G1 X106.823 Y116.162 E.01503
;WIDTH:0.464891
G1 X106.418 Y116.005 E.01525
;WIDTH:0.497326
G1 X106.249 Y115.907 E.00738
;WIDTH:0.529761
G1 X106.08 Y115.81 E.00791
G1 X105.821 Y115.526 E.01556
;WIDTH:0.515129
G1 X105.694 Y115.257 E.01166
;WIDTH:0.487564
G1 X105.566 Y114.989 E.01098
;WIDTH:0.459999
G1 X105.474 Y114.569 E.01493
G1 X105.478 Y114.19 E.01314
G1 X105.62 Y113.682 E.01827
G1 X105.907 Y113.206 E.01929
G1 X106.182 Y112.945 E.01315
G1 X106.457 Y112.771 E.01128
;WIDTH:0.46121
G1 X106.81 Y112.632 E.0132
;WIDTH:0.505484
G1 X107.225 Y112.549 E.01626
;WIDTH:0.506485
G1 X107.512 Y112.557 E.01106
G1 X108.118 Y112.769 E.02475
;WIDTH:0.459999
G1 X108.489 Y113.01 E.01535
G1 X108.747 Y113.283 E.01303
G1 X108.92 Y113.556 E.0112
G1 X109.059 Y113.911 E.01325
G1 X109.121 Y114.301 E.01367
G1 X109.061 Y114.869 E.01982
G1 X108.902 Y115.273 E.01505
G1 X108.687 Y115.585 E.01314
G1 X108.456 Y115.811 E.0112
G1 X108.137 Y116.021 E.01325
G1 X107.781 Y116.16 E.01326
G1 X107.33 Y116.215 E.01575
G1 X107.294 Y116.212 E.00127
G1 E-.84 F2400
;WIPE_START
G1 F1800
G1 X106.823 Y116.162 E-.17039
G1 X106.418 Y116.005 E-.15645
G1 X106.338 Y115.959 E-.03315
;WIPE_END
G17
G3 Z.6 I-1.053 J-.61 P1  F9000
G1 X104.453 Y119.215 Z.6
G1 Z.2
G1 E1.2 F1800
G1 X104.407 Y119.223 E.00161
G1 X104.085 Y119.214 E.0112
G1 X103.712 Y119.13 E.01325
G1 X103.367 Y118.973 E.01314
G1 X103.105 Y118.785 E.0112
G1 X102.844 Y118.51 E.01313
G1 X102.67 Y118.235 E.01128
;WIDTH:0.508761
G1 X102.45 Y117.568 E.02722
G1 X102.46 Y117.186 E.0148
;WIDTH:0.497078
G1 X102.67 Y116.558 E.025
;WIDTH:0.459999
G1 X102.907 Y116.206 E.01472
G1 X103.313 Y115.86 E.01849
G1 X103.772 Y115.644 E.01761
G1 X104.184 Y115.571 E.0145
G1 X104.507 Y115.58 E.0112
G1 X104.88 Y115.663 E.01325
;WIDTH:0.487564
G1 X105.147 Y115.791 E.01095
;WIDTH:0.515129
G1 X105.413 Y115.919 E.01163
;WIDTH:0.528802
G1 X105.758 Y116.241 E.01904
G1 X105.903 Y116.557 E.01407
;WIDTH:0.494401
G1 X106.049 Y116.874 E.01308
;WIDTH:0.459999
