; HEADER_BLOCK_START
; generated by OrcaSlicer 2.3.1 on 2026-04-22 at 21:55:21
; total layer number: 100
; filament_density: 1.27
; filament_diameter: 1.75
; max_z_height: 20.00
; HEADER_BLOCK_END

; external perimeters extrusion width = 0.42mm
; perimeters extrusion width = 0.45mm
; infill extrusion width = 0.45mm
; solid infill extrusion width = 0.42mm
; top infill extrusion width = 0.42mm
; first layer extrusion width = 0.46mm

; EXECUTABLE_BLOCK_START
M201 X2500 Y2500 Z500 E5000
M203 X250 Y250 Z5 E40
M204 P2500 R500 T2500 ; sets acceleration (P, T) and retract acceleration (R), mm/sec^2
M205 X10.00 Y10.00 Z0.40 E5.00 ; sets the jerk limits, mm/sec
;TYPE:Custom
M220 S100 ;Reset Feedrate 
M221 S100 ;Reset Flowrate 
 
M104 S255 ;Set final nozzle temp 
M190 S90 ;Set and wait for bed temp to stabilize 
G28 ;Home 
G92 E0 ;Reset Extruder 
G1 Z2.0 F3000 ;Move Z Axis up 
G1 X-2.1 Y20 Z0.28 F5000.0 ;Move to start position 
M109 S255 ;Wait for nozzle temp to stabilize 
G1 X-2.1 Y145.0 Z0.28 F1500.0 E15 ;Draw the first line 
G1 X-2.4 Y145.0 Z0.28 F5000.0 ;Move to side a little 
G1 X-2.4 Y20 Z0.28 F1500.0 E30 ;Draw the second line 
G92 E0  ;Reset Extruder 
G1 E-1.0000 F1800 ;Retract a bit 
G1 Z2.0 F3000 ;Move Z Axis up 
G1 E0.0000 F1800
G90
G21
M83 ; use relative distances for extrusion
; Filament gcode
M106 S0
;LAYER_CHANGE
;Z:0.2
;HEIGHT:0.2
;BEFORE_LAYER_CHANGE
;0.2
G92 E0

G1 E-1.2 F2400
;_SET_FAN_SPEED_CHANGING_LAYER
M204 P500
; printing object Cube id:3152 copy 0
M204 T500
G1 X92.705 Y119.496 F9000
G1 Z.6
G1 Z.2
G1 E1.2 F1800
;TYPE:Inner wall
;WIDTH:0.459999
G1 X111.368 Y119.496 E.64724
G1 X111.368 Y138.159 E.64724
G1 X92.705 Y138.159 E.64724
G1 X92.705 Y119.536 E.64585
G1 X92.266 Y119.057 F9000
;TYPE:Outer wall
G1 F1800
G1 X111.806 Y119.057 E.67765
G1 X111.806 Y138.597 E.67765
G1 X92.266 Y138.597 E.67765
G1 X92.266 Y119.097 E.67627
G1 E-.84 F2400
;WIPE_START
G1 F1800
G1 X93.266 Y119.095 E-.36
;WIPE_END
G1 Z.6 F9000
G1 X111.243 Y120.472 Z.6
G1 Z.2
G1 E1.2 F1800
;TYPE:Bottom surface
;WIDTH:0.463862
G1 F4800
G1 X110.579 Y119.809 E.03285
G1 X109.984 Y119.809 E.02084
G1 X111.055 Y120.88 E.05303
G1 X111.055 Y121.475 E.02084
G1 X109.388 Y119.809 E.08249
G1 X108.793 Y119.809 E.02084
G1 X111.055 Y122.071 E.11196
G1 X111.055 Y122.666 E.02084
G1 X108.198 Y119.809 E.14143
G1 X107.603 Y119.809 E.02084
G1 X111.055 Y123.261 E.1709
G1 X111.055 Y123.857 E.02084
G1 X107.007 Y119.809 E.20036
G1 X106.412 Y119.809 E.02084
G1 X111.055 Y124.452 E.22983
G1 X111.055 Y125.047 E.02084
G1 X105.817 Y119.809 E.2593
G1 X105.221 Y119.809 E.02084
G1 X111.055 Y125.642 E.28876
G1 X111.055 Y126.238 E.02084
G1 X104.626 Y119.809 E.31823
G1 X104.031 Y119.809 E.02084
G1 X111.055 Y126.833 E.3477
G1 X111.055 Y127.428 E.02084
G1 X103.435 Y119.809 E.37717
G1 X102.84 Y119.809 E.02084
G1 X111.055 Y128.024 E.40663
G1 X111.055 Y128.619 E.02084
G1 X102.245 Y119.809 E.4361
G1 X101.649 Y119.809 E.02084
G1 X111.055 Y129.214 E.46557
G1 X111.055 Y129.81 E.02084
G1 X101.054 Y119.809 E.49503
G1 X100.459 Y119.809 E.02084
G1 X111.055 Y130.405 E.5245
G1 X111.055 Y131 E.02084
G1 X99.864 Y119.809 E.55397
G1 X99.268 Y119.809 E.02084
G1 X111.055 Y131.595 E.58344
G1 X111.055 Y132.191 E.02084
G1 X98.673 Y119.809 E.6129
G1 X98.078 Y119.809 E.02084
G1 X111.055 Y132.786 E.64237
G1 X111.055 Y133.381 E.02084
G1 X97.482 Y119.809 E.67184
G1 X96.887 Y119.809 E.02084
G1 X111.055 Y133.977 E.7013
G1 X111.055 Y134.572 E.02084
G1 X96.292 Y119.809 E.73077
G1 X95.696 Y119.809 E.02084
G1 X111.055 Y135.167 E.76024
G1 X111.055 Y135.763 E.02084
G1 X95.101 Y119.809 E.78971
G1 X94.506 Y119.809 E.02084
G1 X111.055 Y136.358 E.81917
G1 X111.055 Y136.953 E.02084
G1 X93.911 Y119.809 E.84864
G1 X93.315 Y119.809 E.02084
G1 X111.055 Y137.548 E.87811
G1 X111.055 Y137.846 E.01042
G1 X110.757 Y137.846 E.01042
G1 X93.018 Y120.106 E.8781
G1 X93.018 Y120.702 E.02084
G1 X110.162 Y137.846 E.84864
G1 X109.567 Y137.846 E.02084
G1 X93.018 Y121.297 E.81917
G1 X93.018 Y121.892 E.02084
G1 X108.971 Y137.846 E.7897
G1 X108.376 Y137.846 E.02084
G1 X93.018 Y122.488 E.76023
G1 X93.018 Y123.083 E.02084
G1 X107.781 Y137.846 E.73077
G1 X107.185 Y137.846 E.02084
G1 X93.018 Y123.678 E.7013
G1 X93.018 Y124.274 E.02084
G1 X106.59 Y137.846 E.67183
G1 X105.995 Y137.846 E.02084
G1 X93.018 Y124.869 E.64237
G1 X93.018 Y125.464 E.02084
G1 X105.4 Y137.846 E.6129
G1 X104.804 Y137.846 E.02084
G1 X93.018 Y126.059 E.58343
G1 X93.018 Y126.655 E.02084
G1 X104.209 Y137.846 E.55396
G1 X103.614 Y137.846 E.02084
G1 X93.018 Y127.25 E.5245
G1 X93.018 Y127.845 E.02084
G1 X103.018 Y137.846 E.49503
G1 X102.423 Y137.846 E.02084
G1 X93.018 Y128.441 E.46556
G1 X93.018 Y129.036 E.02084
G1 X101.828 Y137.846 E.4361
G1 X101.232 Y137.846 E.02084
G1 X93.018 Y129.631 E.40663
G1 X93.018 Y130.227 E.02084
G1 X100.637 Y137.846 E.37716
G1 X100.042 Y137.846 E.02084
G1 X93.018 Y130.822 E.34769
G1 X93.018 Y131.417 E.02084
G1 X99.447 Y137.846 E.31823
G1 X98.851 Y137.846 E.02084
G1 X93.018 Y132.012 E.28876
G1 X93.018 Y132.608 E.02084
G1 X98.256 Y137.846 E.25929
G1 X97.661 Y137.846 E.02084
G1 X93.018 Y133.203 E.22982
G1 X93.018 Y133.798 E.02084
G1 X97.065 Y137.846 E.20036
G1 X96.47 Y137.846 E.02084
G1 X93.018 Y134.394 E.17089
G1 X93.018 Y134.989 E.02084
G1 X95.875 Y137.846 E.14142
G1 X95.279 Y137.846 E.02084
G1 X93.018 Y135.584 E.11196
G1 X93.018 Y136.18 E.02084
G1 X94.684 Y137.846 E.08249
G1 X94.089 Y137.846 E.02084
G1 X93.018 Y136.775 E.05302
G1 X93.018 Y137.37 E.02084
G1 X93.681 Y138.034 E.03284
; stop printing object Cube id:3152 copy 0
;LAYER_CHANGE
;Z:0.4
;HEIGHT:0.2
;BEFORE_LAYER_CHANGE
;0.4
G92 E0

G1 E-.84 F2400
;WIPE_START
G1 F4800
G1 X93.018 Y137.37 E-.33782
G1 X93.018 Y137.309 E-.02218
;WIPE_END
;_SET_FAN_SPEED_CHANGING_LAYER
M204 P2500
M104 S245 ; set nozzle temperature
M140 S80 ; set bed temperature
; printing object Cube id:3152 copy 0
M204 T2500
G17
G3 Z.8 I1.217 J-.024 P1  F9000
G1 X92.66 Y119.451 Z.8
G1 Z.4
G1 E1.2 F1800
M204 P2000
;TYPE:Inner wall
;WIDTH:0.449999
G1 F5400
G1 X111.413 Y119.451 E.63476
G1 X111.413 Y138.204 E.63476
G1 X92.66 Y138.204 E.63476
G1 X92.66 Y119.491 E.63341
G1 X92.246 Y119.037 F9000
M204 P1000
;TYPE:Outer wall
;WIDTH:0.419999
G1 F3600
G1 X111.826 Y119.037 E.61392
G1 X111.826 Y138.617 E.61392
G1 X92.246 Y138.617 E.61392
G1 X92.246 Y119.077 E.61266
G1 E-.84 F2400
;WIPE_START
G1 F3600
G1 X93.246 Y119.075 E-.36
;WIPE_END
G1 Z.8 F9000
G1 X93.087 Y119.81 Z.8
G1 Z.4
G1 E1.2 F1800
M204 P2500
;TYPE:Internal solid infill
;WIDTH:0.439956
G1 F9067.188
G1 X93.012 Y119.853 E.00284
G1 X93.092 Y119.888 E.00286
G1 X111.251 Y135.859 F9000
;WIDTH:0.421177
G1 F9517.338
G1 X109.238 Y137.873 E.08956
G1 X108.703 Y137.873 E.01682
G1 X111.082 Y135.494 E.10581
G1 X111.082 Y134.959 E.01682
G1 X108.168 Y137.873 E.1296
G1 X107.633 Y137.873 E.01682
G1 X111.082 Y134.424 E.1534
G1 X111.082 Y133.889 E.01682
G1 X107.098 Y137.873 E.17719
G1 X106.563 Y137.873 E.01682
G1 X111.082 Y133.354 E.20099
G1 X111.082 Y132.819 E.01682
G1 X106.028 Y137.873 E.22478
G1 X105.493 Y137.873 E.01682
G1 X111.082 Y132.284 E.24857
G1 X111.082 Y131.75 E.01682
G1 X104.958 Y137.873 E.27237
G1 X104.423 Y137.873 E.01682
G1 X111.082 Y131.215 E.29616
G1 X111.082 Y130.68 E.01682
G1 X103.889 Y137.873 E.31996
G1 X103.354 Y137.873 E.01682
G1 X111.082 Y130.145 E.34375
G1 X111.082 Y129.61 E.01682
G1 X102.819 Y137.873 E.36754
G1 X102.284 Y137.873 E.01682
G1 X111.082 Y129.075 E.39134
G1 X111.082 Y128.54 E.01682
G1 X101.749 Y137.873 E.41513
G1 X101.214 Y137.873 E.01682
G1 X111.082 Y128.005 E.43893
G1 X111.082 Y127.47 E.01682
G1 X100.679 Y137.873 E.46272
G1 X100.144 Y137.873 E.01682
G1 X111.082 Y126.935 E.48651
G1 X111.082 Y126.4 E.01682
G1 X99.609 Y137.873 E.51031
G1 X99.074 Y137.873 E.01682
G1 X111.082 Y125.865 E.5341
G1 X111.082 Y125.33 E.01682
G1 X98.539 Y137.873 E.5579
G1 X98.004 Y137.873 E.01682
G1 X111.082 Y124.795 E.58169
G1 X111.082 Y124.26 E.01682
G1 X97.469 Y137.873 E.60548
G1 X96.934 Y137.873 E.01682
G1 X111.082 Y123.725 E.62928
G1 X111.082 Y123.191 E.01682
G1 X96.399 Y137.873 E.65307
G1 X95.864 Y137.873 E.01682
G1 X111.082 Y122.656 E.67687
G1 X111.082 Y122.121 E.01682
G1 X95.33 Y137.873 E.70066
G1 X94.795 Y137.873 E.01682
G1 X111.082 Y121.586 E.72445
G1 X111.082 Y121.051 E.01682
G1 X94.26 Y137.873 E.74825
G1 X93.725 Y137.873 E.01682
G1 X111.082 Y120.516 E.77204
G1 X111.082 Y119.981 E.01682
G1 X93.19 Y137.873 E.79584
G1 X92.991 Y137.873 E.00626
G1 X92.991 Y137.537 E.01057
G1 X110.746 Y119.782 E.78974
G1 X110.211 Y119.782 E.01682
G1 X92.991 Y137.002 E.76595
G1 X92.991 Y136.467 E.01682
G1 X109.676 Y119.782 E.74215
G1 X109.141 Y119.782 E.01682
G1 X92.991 Y135.932 E.71836
G1 X92.991 Y135.397 E.01682
G1 X108.606 Y119.782 E.69456
G1 X108.071 Y119.782 E.01682
G1 X92.991 Y134.862 E.67077
G1 X92.991 Y134.327 E.01682
G1 X107.536 Y119.782 E.64698
G1 X107.001 Y119.782 E.01682
G1 X92.991 Y133.792 E.62318
G1 X92.991 Y133.257 E.01682
G1 X106.466 Y119.782 E.59939
G1 X105.931 Y119.782 E.01682
G1 X92.991 Y132.722 E.57559
G1 X92.991 Y132.188 E.01682
G1 X105.396 Y119.782 E.5518
G1 X104.861 Y119.782 E.01682
G1 X92.991 Y131.653 E.52801
G1 X92.991 Y131.118 E.01682
G1 X104.327 Y119.782 E.50421
G1 X103.792 Y119.782 E.01682
G1 X92.991 Y130.583 E.48042
G1 X92.991 Y130.048 E.01682
G1 X103.257 Y119.782 E.45662
G1 X102.722 Y119.782 E.01682
G1 X92.991 Y129.513 E.43283
G1 X92.991 Y128.978 E.01682
G1 X102.187 Y119.782 E.40904
G1 X101.652 Y119.782 E.01682
G1 X92.991 Y128.443 E.38524
G1 X92.991 Y127.908 E.01682
G1 X101.117 Y119.782 E.36145
G1 X100.582 Y119.782 E.01682
G1 X92.991 Y127.373 E.33765
G1 X92.991 Y126.838 E.01682
G1 X100.047 Y119.782 E.31386
G1 X99.512 Y119.782 E.01682
G1 X92.991 Y126.303 E.29007
G1 X92.991 Y125.768 E.01682
G1 X98.977 Y119.782 E.26627
G1 X98.442 Y119.782 E.01682
G1 X92.991 Y125.233 E.24248
G1 X92.991 Y124.698 E.01682
G1 X97.907 Y119.782 E.21868
G1 X97.372 Y119.782 E.01682
G1 X92.991 Y124.163 E.19489
G1 X92.991 Y123.629 E.01682
G1 X96.837 Y119.782 E.1711
G1 X96.302 Y119.782 E.01682
G1 X92.991 Y123.094 E.1473
G1 X92.991 Y122.559 E.01682
G1 X95.768 Y119.782 E.12351
G1 X95.233 Y119.782 E.01682
G1 X92.991 Y122.024 E.09971
G1 X92.991 Y121.489 E.01682
G1 X94.698 Y119.782 E.07592
G1 X94.163 Y119.782 E.01682
G1 X92.991 Y120.954 E.05213
G1 X92.991 Y120.419 E.01682
G1 X93.797 Y119.612 E.03588
G1 X109.78 Y137.812 F9000
;WIDTH:0.419999
G1 F9547.071
G1 X111.021 Y137.812 E.03891
G1 X111.021 Y136.571 E.03891
G1 X109.808 Y137.784 E.05377
G1 X110.679 Y137.41 F9000
;WIDTH:0.392744
G1 F10290.89
G1 X110.614 Y137.448 E.0022
G1 X110.681 Y137.483 E.00221
; stop printing object Cube id:3152 copy 0
;LAYER_CHANGE
;Z:0.6
;HEIGHT:0.2
;BEFORE_LAYER_CHANGE
;0.6
G92 E0

G1 E-1.16465 F2400
;WIPE_START
G1 F10290.89
G1 X110.614 Y137.448 E-.01768
G1 X110.679 Y137.41 E-.01766
;WIPE_END
;_SET_FAN_SPEED_CHANGING_LAYER
; printing object Cube id:3152 copy 0
G17
G3 Z1 I.859 J-.862 P1  F9000
G1 X92.66 Y119.451 Z1
G1 Z.6
G1 E1.2 F1800
M204 P2000
;TYPE:Inner wall
;WIDTH:0.449999
G1 F5400
G1 X111.413 Y119.451 E.63476
G1 X111.413 Y138.204 E.63476
G1 X92.66 Y138.204 E.63476
G1 X92.66 Y119.491 E.63341
G1 X92.246 Y119.037 F9000
M204 P1000
;TYPE:Outer wall
;WIDTH:0.419999
G1 F3600
G1 X111.826 Y119.037 E.61392
G1 X111.826 Y138.617 E.61392
G1 X92.246 Y138.617 E.61392
G1 X92.246 Y119.077 E.61266
G1 E-.84 F2400
;WIPE_START
G1 F3600
G1 X93.246 Y119.075 E-.36
;WIPE_END
G1 Z1 F9000
G1 X109.78 Y119.843 Z1
G1 Z.6
G1 E1.2 F1800
M204 P2500
;TYPE:Internal solid infill
G1 F9547.071
G1 X111.021 Y121.084 E.05502
G1 X111.021 Y119.843 E.03891
G1 X109.82 Y119.843 E.03765
G1 X110.679 Y120.169 F9000
;WIDTH:0.392744
G1 F10290.89
G1 X110.614 Y120.206 E.0022
G1 X110.681 Y120.241 E.00221
G1 X111.251 Y121.796 F9000
;WIDTH:0.421177
G1 F9517.338
G1 X109.238 Y119.782 E.08956
G1 X108.703 Y119.782 E.01682
G1 X111.082 Y122.161 E.10581
G1 X111.082 Y122.696 E.01682
G1 X108.168 Y119.782 E.1296
G1 X107.633 Y119.782 E.01682
G1 X111.082 Y123.231 E.1534
G1 X111.082 Y123.766 E.01682
G1 X107.098 Y119.782 E.17719
G1 X106.563 Y119.782 E.01682
G1 X111.082 Y124.3 E.20099
G1 X111.082 Y124.835 E.01682
G1 X106.028 Y119.782 E.22478
G1 X105.493 Y119.782 E.01682
G1 X111.082 Y125.37 E.24857
G1 X111.082 Y125.905 E.01682
G1 X104.958 Y119.782 E.27237
G1 X104.423 Y119.782 E.01682
G1 X111.082 Y126.44 E.29616
G1 X111.082 Y126.975 E.01682
G1 X103.889 Y119.782 E.31996
G1 X103.354 Y119.782 E.01682
G1 X111.082 Y127.51 E.34375
G1 X111.082 Y128.045 E.01682
G1 X102.819 Y119.782 E.36754
G1 X102.284 Y119.782 E.01682
G1 X111.082 Y128.58 E.39134
G1 X111.082 Y129.115 E.01682
G1 X101.749 Y119.782 E.41513
G1 X101.214 Y119.782 E.01682
G1 X111.082 Y129.65 E.43893
G1 X111.082 Y130.185 E.01682
G1 X100.679 Y119.782 E.46272
G1 X100.144 Y119.782 E.01682
G1 X111.082 Y130.72 E.48651
G1 X111.082 Y131.255 E.01682
G1 X99.609 Y119.782 E.51031
G1 X99.074 Y119.782 E.01682
G1 X111.082 Y131.79 E.5341
G1 X111.082 Y132.325 E.01682
G1 X98.539 Y119.782 E.5579
G1 X98.004 Y119.782 E.01682
G1 X111.082 Y132.859 E.58169
G1 X111.082 Y133.394 E.01682
G1 X97.469 Y119.782 E.60548
G1 X96.934 Y119.782 E.01682
G1 X111.082 Y133.929 E.62928
G1 X111.082 Y134.464 E.01682
G1 X96.399 Y119.782 E.65307
G1 X95.864 Y119.782 E.01682
G1 X111.082 Y134.999 E.67687
G1 X111.082 Y135.534 E.01682
G1 X95.33 Y119.782 E.70066
G1 X94.795 Y119.782 E.01682
G1 X111.082 Y136.069 E.72445
G1 X111.082 Y136.604 E.01682
G1 X94.26 Y119.782 E.74825
G1 X93.725 Y119.782 E.01682
G1 X111.082 Y137.139 E.77204
G1 X111.082 Y137.674 E.01682
G1 X93.19 Y119.782 E.79584
G1 X92.991 Y119.782 E.00626
G1 X92.991 Y120.118 E.01057
G1 X110.746 Y137.873 E.78974
G1 X110.211 Y137.873 E.01682
G1 X92.991 Y120.653 E.76595
G1 X92.991 Y121.188 E.01682
G1 X109.676 Y137.873 E.74215
G1 X109.141 Y137.873 E.01682
G1 X92.991 Y121.723 E.71836
G1 X92.991 Y122.258 E.01682
G1 X108.606 Y137.873 E.69456
G1 X108.071 Y137.873 E.01682
G1 X92.991 Y122.793 E.67077
G1 X92.991 Y123.328 E.01682
G1 X107.536 Y137.873 E.64698
G1 X107.001 Y137.873 E.01682
G1 X92.991 Y123.863 E.62318
G1 X92.991 Y124.397 E.01682
G1 X106.466 Y137.873 E.59939
G1 X105.931 Y137.873 E.01682
G1 X92.991 Y124.932 E.57559
G1 X92.991 Y125.467 E.01682
G1 X105.396 Y137.873 E.5518
G1 X104.861 Y137.873 E.01682
G1 X92.991 Y126.002 E.52801
G1 X92.991 Y126.537 E.01682
G1 X104.327 Y137.873 E.50421
G1 X103.792 Y137.873 E.01682
G1 X92.991 Y127.072 E.48042
G1 X92.991 Y127.607 E.01682
G1 X103.257 Y137.873 E.45662
G1 X102.722 Y137.873 E.01682
G1 X92.991 Y128.142 E.43283
G1 X92.991 Y128.677 E.01682
G1 X102.187 Y137.873 E.40904
G1 X101.652 Y137.873 E.01682
G1 X92.991 Y129.212 E.38524
G1 X92.991 Y129.747 E.01682
G1 X101.117 Y137.873 E.36145
G1 X100.582 Y137.873 E.01682
G1 X92.991 Y130.282 E.33765
G1 X92.991 Y130.817 E.01682
G1 X100.047 Y137.873 E.31386
G1 X99.512 Y137.873 E.01682
G1 X92.991 Y131.352 E.29007
G1 X92.991 Y131.887 E.01682
G1 X98.977 Y137.873 E.26627
G1 X98.442 Y137.873 E.01682
G1 X92.991 Y132.421 E.24248
G1 X92.991 Y132.956 E.01682
G1 X97.907 Y137.873 E.21868
G1 X97.372 Y137.873 E.01682
G1 X92.991 Y133.491 E.19489
G1 X92.991 Y134.026 E.01682
G1 X96.837 Y137.873 E.1711
G1 X96.302 Y137.873 E.01682
G1 X92.991 Y134.561 E.1473
G1 X92.991 Y135.096 E.01682
G1 X95.768 Y137.873 E.12351
G1 X95.233 Y137.873 E.01682
G1 X92.991 Y135.631 E.09971
G1 X92.991 Y136.166 E.01682
G1 X94.698 Y137.873 E.07592
G1 X94.163 Y137.873 E.01682
G1 X92.991 Y136.701 E.05213
G1 X92.991 Y137.236 E.01682
G1 X93.797 Y138.043 E.03588
G1 X93.087 Y137.759 F9000
;WIDTH:0.439958
G1 F9067.141
G1 X93.012 Y137.802 E.00284
G1 X93.092 Y137.836 E.00286
; stop printing object Cube id:3152 copy 0
M106 S51
;LAYER_CHANGE
;Z:0.8
;HEIGHT:0.2
;BEFORE_LAYER_CHANGE
;0.8
G92 E0

G1 E-1.15435 F2400
;WIPE_START
G1 F9067.141
G1 X93.012 Y137.802 E-.0229
G1 X93.087 Y137.759 E-.02275
;WIPE_END
;_SET_FAN_SPEED_CHANGING_LAYER
; printing object Cube id:3152 copy 0
G17
G3 Z1.2 I1.217 J-.028 P1  F9000
G1 X92.66 Y119.451 Z1.2
G1 Z.8
G1 E1.2 F1800
M204 P2000
;TYPE:Inner wall
;WIDTH:0.449999
G1 F5400
G1 X111.413 Y119.451 E.63476
G1 X111.413 Y138.204 E.63476
G1 X92.66 Y138.204 E.63476
G1 X92.66 Y119.491 E.63341
G1 X92.246 Y119.037 F9000
M204 P1000
;TYPE:Outer wall
;WIDTH:0.419999
G1 F3600
