; HEADER_BLOCK_START
; generated by OrcaSlicer 2.3.1 on 2026-04-12 at 21:31:23
; total layer number: 100
; filament_density: 1.27
; filament_diameter: 1.75
; max_z_height: 20.00
; HEADER_BLOCK_END

; external perimeters extrusion width = 0.42mm
; perimeters extrusion width = 0.45mm
; infill extrusion width = 0.45mm
; solid infill extrusion width = 0.42mm
; top infill extrusion width = 0.42mm
; first layer extrusion width = 0.46mm

; EXECUTABLE_BLOCK_START
M201 X2500 Y2500 Z500 E5000
M203 X250 Y250 Z5 E40
M204 P2500 R500 T2500 ; sets acceleration (P, T) and retract acceleration (R), mm/sec^2
M205 X10.00 Y10.00 Z0.40 E5.00 ; sets the jerk limits, mm/sec
;TYPE:Custom
M220 S100 ;Reset Feedrate 
M221 S100 ;Reset Flowrate 
 
M104 S255 ;Set final nozzle temp 
M190 S90 ;Set and wait for bed temp to stabilize 
G28 ;Home 
G92 E0 ;Reset Extruder 
G1 Z2.0 F3000 ;Move Z Axis up 
G1 X-2.1 Y20 Z0.28 F5000.0 ;Move to start position 
M109 S255 ;Wait for nozzle temp to stabilize 
G1 X-2.1 Y145.0 Z0.28 F1500.0 E15 ;Draw the first line 
G1 X-2.4 Y145.0 Z0.28 F5000.0 ;Move to side a little 
G1 X-2.4 Y20 Z0.28 F1500.0 E30 ;Draw the second line 
G92 E0  ;Reset Extruder 
G1 E-1.0000 F1800 ;Retract a bit 
G1 Z2.0 F3000 ;Move Z Axis up 
G1 E0.0000 F1800
G90
G21
M83 ; use relative distances for extrusion
; Filament gcode
M106 S0
;LAYER_CHANGE
;Z:0.2
;HEIGHT:0.2
;BEFORE_LAYER_CHANGE
;0.2
G92 E0

G1 E-1.2 F2400
;_SET_FAN_SPEED_CHANGING_LAYER
M204 P500
; printing object Cube id:99503519867904 copy 0
M204 T500
G1 X119.331 Y119.331 F9000
G1 Z.6
G1 Z.2
G1 E1.2 F1800
;TYPE:Inner wall
;WIDTH:0.459999
G1 X100.669 Y119.331 E.64724
G1 X100.669 Y100.669 E.64724
G1 X119.331 Y100.669 E.64724
G1 X119.331 Y119.291 E.64585
G1 X119.77 Y119.77 F9000
;TYPE:Outer wall
G1 F1800
G1 X100.23 Y119.77 E.67765
G1 X100.23 Y100.23 E.67765
G1 X119.77 Y100.23 E.67765
G1 X119.77 Y119.73 E.67627
G1 E-.84 F2400
;WIPE_START
G1 F1800
G1 X118.77 Y119.732 E-.36
;WIPE_END
G1 Z.6 F9000
G1 X119.206 Y101.645 Z.6
G1 Z.2
G1 E1.2 F1800
;TYPE:Bottom surface
;WIDTH:0.463862
G1 F4800
G1 X118.543 Y100.981 E.03285
G1 X117.947 Y100.981 E.02084
G1 X119.019 Y102.053 E.05303
G1 X119.019 Y102.648 E.02084
G1 X117.352 Y100.981 E.08249
G1 X116.757 Y100.981 E.02084
G1 X119.019 Y103.243 E.11196
G1 X119.019 Y103.839 E.02084
G1 X116.161 Y100.981 E.14143
G1 X115.566 Y100.981 E.02084
G1 X119.019 Y104.434 E.1709
G1 X119.019 Y105.029 E.02084
G1 X114.971 Y100.981 E.20036
G1 X114.376 Y100.981 E.02084
G1 X119.019 Y105.624 E.22983
G1 X119.019 Y106.22 E.02084
G1 X113.78 Y100.981 E.2593
G1 X113.185 Y100.981 E.02084
G1 X119.019 Y106.815 E.28876
G1 X119.019 Y107.41 E.02084
G1 X112.59 Y100.981 E.31823
G1 X111.994 Y100.981 E.02084
G1 X119.019 Y108.006 E.3477
G1 X119.019 Y108.601 E.02084
G1 X111.399 Y100.981 E.37717
G1 X110.804 Y100.981 E.02084
G1 X119.019 Y109.196 E.40663
G1 X119.019 Y109.792 E.02084
G1 X110.208 Y100.981 E.4361
G1 X109.613 Y100.981 E.02084
G1 X119.019 Y110.387 E.46557
G1 X119.019 Y110.982 E.02084
G1 X109.018 Y100.981 E.49503
G1 X108.423 Y100.981 E.02084
G1 X119.019 Y111.577 E.5245
G1 X119.019 Y112.173 E.02084
G1 X107.827 Y100.981 E.55397
G1 X107.232 Y100.981 E.02084
G1 X119.019 Y112.768 E.58344
G1 X119.019 Y113.363 E.02084
G1 X106.637 Y100.981 E.6129
G1 X106.041 Y100.981 E.02084
G1 X119.019 Y113.959 E.64237
G1 X119.019 Y114.554 E.02084
G1 X105.446 Y100.981 E.67184
G1 X104.851 Y100.981 E.02084
G1 X119.019 Y115.149 E.7013
G1 X119.019 Y115.745 E.02084
G1 X104.255 Y100.981 E.73077
G1 X103.66 Y100.981 E.02084
G1 X119.019 Y116.34 E.76024
G1 X119.019 Y116.935 E.02084
G1 X103.065 Y100.981 E.78971
G1 X102.47 Y100.981 E.02084
G1 X119.019 Y117.53 E.81917
G1 X119.019 Y118.126 E.02084
G1 X101.874 Y100.981 E.84864
G1 X101.279 Y100.981 E.02084
G1 X119.019 Y118.721 E.87811
G1 X119.019 Y119.019 E.01042
G1 X118.721 Y119.019 E.01042
G1 X100.981 Y101.279 E.8781
G1 X100.981 Y101.874 E.02084
G1 X118.126 Y119.019 E.84864
G1 X117.53 Y119.019 E.02084
G1 X100.981 Y102.47 E.81917
G1 X100.981 Y103.065 E.02084
G1 X116.935 Y119.019 E.7897
G1 X116.34 Y119.019 E.02084
G1 X100.981 Y103.66 E.76023
G1 X100.981 Y104.256 E.02084
G1 X115.744 Y119.019 E.73077
G1 X115.149 Y119.019 E.02084
G1 X100.981 Y104.851 E.7013
G1 X100.981 Y105.446 E.02084
G1 X114.554 Y119.019 E.67183
G1 X113.959 Y119.019 E.02084
G1 X100.981 Y106.041 E.64237
G1 X100.981 Y106.637 E.02084
G1 X113.363 Y119.019 E.6129
G1 X112.768 Y119.019 E.02084
G1 X100.981 Y107.232 E.58343
G1 X100.981 Y107.827 E.02084
G1 X112.173 Y119.019 E.55396
G1 X111.577 Y119.019 E.02084
G1 X100.981 Y108.423 E.5245
G1 X100.981 Y109.018 E.02084
G1 X110.982 Y119.019 E.49503
G1 X110.387 Y119.019 E.02084
G1 X100.981 Y109.613 E.46556
G1 X100.981 Y110.209 E.02084
G1 X109.791 Y119.019 E.4361
G1 X109.196 Y119.019 E.02084
G1 X100.981 Y110.804 E.40663
G1 X100.981 Y111.399 E.02084
G1 X108.601 Y119.019 E.37716
G1 X108.006 Y119.019 E.02084
G1 X100.981 Y111.994 E.34769
G1 X100.981 Y112.59 E.02084
G1 X107.41 Y119.019 E.31823
G1 X106.815 Y119.019 E.02084
G1 X100.981 Y113.185 E.28876
G1 X100.981 Y113.78 E.02084
G1 X106.22 Y119.019 E.25929
G1 X105.624 Y119.019 E.02084
G1 X100.981 Y114.376 E.22982
G1 X100.981 Y114.971 E.02084
G1 X105.029 Y119.019 E.20036
G1 X104.434 Y119.019 E.02084
G1 X100.981 Y115.566 E.17089
G1 X100.981 Y116.162 E.02084
G1 X103.838 Y119.019 E.14142
G1 X103.243 Y119.019 E.02084
G1 X100.981 Y116.757 E.11196
G1 X100.981 Y117.352 E.02084
G1 X102.648 Y119.019 E.08249
G1 X102.053 Y119.019 E.02084
G1 X100.981 Y117.947 E.05302
G1 X100.981 Y118.543 E.02084
G1 X101.645 Y119.206 E.03284
; stop printing object Cube id:99503519867904 copy 0
;LAYER_CHANGE
;Z:0.4
;HEIGHT:0.2
;BEFORE_LAYER_CHANGE
;0.4
G92 E0

G1 E-.84 F2400
;WIPE_START
G1 F4800
G1 X100.981 Y118.543 E-.33782
G1 X100.981 Y118.481 E-.02218
;WIPE_END
;_SET_FAN_SPEED_CHANGING_LAYER
M204 P2500
M104 S245 ; set nozzle temperature
M140 S80 ; set bed temperature
; printing object Cube id:99503519867904 copy 0
M204 T2500
G17
G3 Z.8 I-.059 J1.216 P1  F9000
G1 X119.376 Y119.376 Z.8
G1 Z.4
G1 E1.2 F1800
M204 P2000
;TYPE:Inner wall
;WIDTH:0.449999
G1 F5400
G1 X100.624 Y119.376 E.63476
G1 X100.624 Y100.624 E.63476
G1 X119.376 Y100.624 E.63476
G1 X119.376 Y119.336 E.63341
G1 X119.79 Y119.79 F9000
M204 P1000
;TYPE:Outer wall
;WIDTH:0.419999
G1 F3600
G1 X100.21 Y119.79 E.61392
G1 X100.21 Y100.21 E.61392
G1 X119.79 Y100.21 E.61392
G1 X119.79 Y119.75 E.61266
G1 E-.84 F2400
;WIPE_START
G1 F3600
G1 X118.79 Y119.752 E-.36
;WIPE_END
G1 Z.8 F9000
G1 X117.574 Y118.857 Z.8
G1 Z.4
G1 E1.2 F1800
M204 P2500
;TYPE:Top surface
;WIDTH:0.441227
G1 F3000
G1 X118.857 Y117.574 E.06009
G1 X119.031 Y116.836 F9000
G1 F3000
G1 X116.835 Y119.032 E.10288
G1 X116.295 Y119.009 F9000
G1 F3000
G1 X119.009 Y116.295 E.1271
G1 X118.892 Y115.849 F9000
G1 F3000
G1 X115.848 Y118.893 E.14257
G1 X115.466 Y118.711 F9000
G1 F3000
G1 X118.711 Y115.466 E.15198
G1 X118.478 Y115.136 F9000
G1 F3000
G1 X115.136 Y118.478 E.15652
G1 X114.855 Y118.196 F9000
G1 F3000
G1 X118.196 Y114.854 E.15651
G1 X117.866 Y114.621 F9000
G1 F3000
G1 X114.621 Y117.867 E.15201
G1 X114.44 Y117.484 F9000
G1 F3000
G1 X117.483 Y114.441 E.14252
G1 X117.036 Y114.325 F9000
G1 F3000
G1 X114.324 Y117.037 E.12701
G1 X114.302 Y116.496 F9000
G1 F3000
G1 X116.497 Y114.301 E.10281
G1 X115.759 Y114.476 F9000
G1 F3000
G1 X114.477 Y115.758 E.06004
G1 X117.639 Y114.289 F9000
;TYPE:Internal solid infill
;WIDTH:0.419999
G1 F9547.071
G1 X118.094 Y114.52 E.01599
G1 X118.484 Y114.838 E.01578
G1 X118.825 Y115.257 E.01693
G1 X118.984 Y115.565 E.01087
G1 X118.984 Y112.944 E.08218
G1 X117.668 Y114.261 E.05838
G1 X118.228 Y114.194 F9000
;WIDTH:0.363658
G1 F10800
G1 X118.635 Y114.511 E.01378
G1 X118.635 Y113.786 E.01934
G1 X118.256 Y114.166 E.0143
G1 X119.07 Y117.324 F9000
;WIDTH:0.38292
G1 F10588.235
G1 X119.112 Y116.822 E.01425
G1 X119.102 Y116.334 E.0138
G1 X117.98 Y118.932 F9000
;WIDTH:0.525205
G1 F7464.466
G1 X118.932 Y118.932 E.03817
G1 X118.932 Y117.985 E.03795
G1 X118.621 Y118.428 E.02169
G1 X118.251 Y118.766 E.0201
G1 X118.014 Y118.911 E.01113
G1 X116.128 Y119.085 F9000
;WIDTH:0.38292
G1 F10588.235
G1 X116.628 Y119.115 E.01417
G1 X117.157 Y119.088 E.01496
G1 X114.199 Y118.224 F9000
;WIDTH:0.36491
G1 F10800
G1 X113.788 Y118.635 E.01556
G1 X114.504 Y118.635 E.01916
G1 X114.223 Y118.256 E.01263
G1 X114.294 Y117.634 F9000
;WIDTH:0.419999
G1 F9547.071
G1 X112.944 Y118.984 E.05987
G1 X115.543 Y118.984 E.0815
G1 X115.103 Y118.716 E.01616
G1 X114.73 Y118.368 E.01599
G1 X114.418 Y117.928 E.01693
G1 X114.31 Y117.671 E.00874
G1 X112.232 Y119.215 F9000
;WIDTH:0.421838
G1 F9500.736
G1 X114.163 Y117.285 E.08602
G1 X114.092 Y116.819 E.01483
G1 X111.866 Y119.045 E.0992
G1 X111.33 Y119.045 E.01688
G1 X114.344 Y116.032 E.13429
G1 X117.142 Y114.305 F9000
G1 F9500.736
G1 X119.045 Y112.402 E.0848
G1 X119.045 Y112.296 E.00332
G1 X119.028 Y112.279 E.00078
G1 X119.028 Y111.883 E.01246
G1 X116.818 Y114.093 E.09845
G1 X116.515 Y114.092 E.00955
G1 X116.255 Y114.121 E.00826
G1 X119.028 Y111.347 E.12358
G1 X119.028 Y110.812 E.01688
G1 X110.794 Y119.045 E.36688
G1 X110.258 Y119.045 E.01688
G1 X119.028 Y110.276 E.39076
G1 X119.028 Y109.74 E.01688
G1 X109.74 Y119.028 E.41386
G1 X109.204 Y119.028 E.01688
G1 X119.028 Y109.204 E.43774
G1 X119.028 Y108.668 E.01688
G1 X108.668 Y119.028 E.46161
G1 X108.132 Y119.028 E.01688
G1 X119.028 Y108.132 E.48549
G1 X119.028 Y107.596 E.01688
G1 X107.596 Y119.028 E.50937
G1 X107.06 Y119.028 E.01688
G1 X119.028 Y107.06 E.53324
G1 X119.028 Y106.525 E.01688
G1 X106.525 Y119.028 E.55712
G1 X105.989 Y119.028 E.01688
G1 X119.028 Y105.989 E.581
G1 X119.028 Y105.453 E.01688
G1 X105.453 Y119.028 E.60488
G1 X104.917 Y119.028 E.01688
G1 X119.028 Y104.917 E.62875
G1 X119.028 Y104.848 E.00217
G1 X117.968 Y105.908 E.04724
G1 X117.738 Y105.679 E.01022
G1 X117.724 Y105.686 E.00051
G1 X105.688 Y117.721 E.53627
G1 X105.825 Y117.335 E.01289
G1 X105.894 Y116.979 E.01144
G1 X116.981 Y105.893 E.49399
G1 X116.658 Y105.912 E.01017
G1 X116.437 Y105.901 E.007
G1 X105.903 Y116.435 E.46937
G1 X105.821 Y115.981 E.01453
G1 X115.982 Y105.819 E.45278
G1 X115.589 Y105.676 E.01317
G1 X105.677 Y115.589 E.44168
G1 X105.485 Y115.244 E.01241
G1 X115.246 Y105.484 E.43492
G1 X114.943 Y105.251 E.01204
G1 X105.251 Y114.943 E.43184
G1 X104.978 Y114.68 E.01194
G1 X114.681 Y104.977 E.43234
G1 X114.458 Y104.664 E.01211
G1 X104.665 Y114.457 E.43639
G1 X104.307 Y114.279 E.01259
G1 X114.28 Y104.306 E.44437
G1 X114.152 Y103.899 E.01346
G1 X103.9 Y114.15 E.4568
G1 X103.425 Y114.089 E.01508
G1 X114.09 Y103.424 E.47521
G1 X114.094 Y103.172 E.00797
G1 X114.136 Y102.843 E.01044
G1 X102.844 Y114.135 E.50315
G1 X102.386 Y114.268 E.01501
G1 X101.972 Y114.47 E.01452
G1 X114.474 Y101.968 E.55707
G1 X114.245 Y101.739 E.01023
G1 X115.012 Y100.972 E.03416
G1 X114.935 Y100.972 E.00242
G1 X100.972 Y114.935 E.62215
G1 X100.972 Y114.399 E.01688
G1 X114.399 Y100.972 E.59827
G1 X113.863 Y100.972 E.01688
G1 X100.972 Y113.863 E.5744
G1 X100.972 Y113.327 E.01688
G1 X113.327 Y100.972 E.55052
G1 X112.791 Y100.972 E.01688
G1 X100.972 Y112.791 E.52664
G1 X100.972 Y112.255 E.01688
G1 X112.255 Y100.972 E.50276
G1 X111.72 Y100.972 E.01688
G1 X100.972 Y111.72 E.47889
G1 X100.972 Y111.184 E.01688
G1 X111.184 Y100.972 E.45501
G1 X110.648 Y100.972 E.01688
G1 X100.972 Y110.648 E.43113
G1 X100.972 Y110.112 E.01688
G1 X110.112 Y100.972 E.40726
G1 X109.576 Y100.972 E.01688
G1 X100.955 Y109.594 E.38416
G1 X100.955 Y109.058 E.01688
G1 X104.281 Y105.732 E.14821
G1 X104.713 Y105.513 E.01525
G1 X104.899 Y105.383 E.00716
G1 X105.119 Y105.194 E.00914
G1 X105.282 Y105.022 E.00747
G1 X105.454 Y104.801 E.00883
G1 X105.623 Y104.52 E.01033
G1 X105.731 Y104.281 E.00827
G1 X109.227 Y100.785 E.15577
G1 X114.688 Y101.739 F9000
;WIDTH:0.392498
G1 F10298.131
G1 X115.279 Y101.172 E.02381
;WIDTH:0.421265
G1 F9515.138
G1 X115.36 Y101.109 E.00324
;WIDTH:0.459642
G1 F8638.863
G1 X115.441 Y101.045 E.00356
;WIDTH:0.454853
G1 F8739.296
G1 X115.874 Y100.972 E.01504
;WIDTH:0.403908
G1 F9972.653
G1 X116.306 Y100.899 E.01318
G1 X116.87 Y100.891 E.01693
G1 X118.932 Y102.027 F9000
;WIDTH:0.52475
G1 F7471.515
G1 X118.932 Y101.068 E.03843
G1 X118.001 Y101.068 E.0373
G1 X118.436 Y101.386 E.02159
G1 X118.773 Y101.758 E.0201
G1 X118.912 Y101.993 E.01093
G1 X117.975 Y105.486 F9000
;WIDTH:0.384249
G1 F10547.014
G1 X118.637 Y104.871 E.02565
G1 X118.969 Y104.461 E.01496
G1 X119.08 Y103.924 E.01556
G1 X119.115 Y103.404 E.0148
G1 X119.097 Y102.93 E.01346
G1 X117.575 Y105.523 F9000
;TYPE:Top surface
;WIDTH:0.441225
G1 F3000
G1 X118.858 Y104.24 E.0601
G1 X119.032 Y103.503 F9000
G1 F3000
G1 X116.836 Y105.699 E.10288
G1 X116.296 Y105.675 F9000
G1 F3000
G1 X119.01 Y102.962 E.1271
G1 X118.893 Y102.515 F9000
G1 F3000
G1 X115.849 Y105.559 E.14256
G1 X115.467 Y105.378 F9000
G1 F3000
G1 X118.712 Y102.133 E.15202
G1 X118.478 Y101.803 F9000
G1 F3000
G1 X115.137 Y105.144 E.15648
G1 X114.856 Y104.863 F9000
G1 F3000
G1 X118.197 Y101.522 E.15649
G1 X117.868 Y101.288 F9000
G1 F3000
G1 X114.622 Y104.533 E.152
G1 X114.441 Y104.151 F9000
G1 F3000
G1 X117.484 Y101.108 E.14252
G1 X117.037 Y100.992 F9000
G1 F3000
G1 X114.325 Y103.703 E.127
G1 X114.303 Y103.162 F9000
G1 F3000
G1 X116.498 Y100.968 E.10278
G1 X115.76 Y101.142 F9000
G1 F3000
G1 X114.478 Y102.424 E.06005
G1 X104.24 Y105.523 F9000
;WIDTH:0.441227
G1 F3000
G1 X105.523 Y104.24 E.06009
G1 X105.698 Y103.503 F9000
G1 F3000
G1 X103.501 Y105.699 E.10288
G1 X102.962 Y105.675 F9000
G1 F3000
G1 X105.675 Y102.962 E.1271
G1 X105.559 Y102.515 F9000
G1 F3000
G1 X102.515 Y105.559 E.14257
G1 X102.133 Y105.378 F9000
G1 F3000
G1 X105.378 Y102.133 E.15198
G1 X105.145 Y101.803 F9000
G1 F3000
G1 X101.803 Y105.144 E.15652
G1 X101.522 Y104.863 F9000
G1 F3000
G1 X104.863 Y101.521 E.15651
G1 X104.533 Y101.288 F9000
G1 F3000
G1 X101.288 Y104.533 E.15201
G1 X101.107 Y104.151 F9000
G1 F3000
G1 X104.15 Y101.108 E.14252
G1 X103.702 Y100.992 F9000
G1 F3000
G1 X100.991 Y103.703 E.12701
G1 X100.968 Y103.163 F9000
G1 F3000
G1 X103.163 Y100.968 E.10281
G1 X102.425 Y101.142 F9000
G1 F3000
G1 X101.143 Y102.424 E.06004
G1 X102.72 Y100.924 F9000
;TYPE:Internal solid infill
;WIDTH:0.38292
G1 F10588.235
G1 X103.223 Y100.887 E.01425
G1 X103.778 Y100.908 E.01571
G1 X101.069 Y102.022 F9000
;WIDTH:0.526381
G1 F7446.309
G1 X101.315 Y101.645 E.0181
G1 X101.672 Y101.294 E.02012
G1 X102.014 Y101.069 E.01648
G1 X101.069 Y101.069 E.03802
G1 X101.069 Y101.982 E.03671
G1 X100.914 Y103.863 F9000
;WIDTH:0.38292
G1 F10588.235
G1 X100.885 Y103.278 E.01657
G1 X100.916 Y102.803 E.01343
G1 X101.912 Y106.376 F9000
;WIDTH:0.631468
G1 F6116.748
G1 X101.839 Y106.376 E.0036
G1 X101.802 Y106.439 E.0036
G1 X101.839 Y106.503 E.0036
G1 X101.912 Y106.503 E.0036
G1 X101.929 Y106.474 E.00164
G1 X102.775 Y106.223 F9000
;WIDTH:0.419999
G1 F9547.071
G1 X102.477 Y106.159 E.00956
G1 X102.012 Y105.974 E.01569
G1 X101.393 Y105.558 E.02339
G1 X101.393 Y107.605 E.06417
G1 X102.747 Y106.251 E.06004
G1 X103.642 Y105.889 F9000
G1 F9547.071
G1 X103.149 Y105.904 E.01549
G1 X102.654 Y105.82 E.01572
G1 X102.152 Y105.624 E.01692
G1 X101.644 Y105.28 E.01922
G1 X101.273 Y104.884 E.01702
G1 X101.016 Y104.453 E.01573
G1 X101.016 Y108.515 E.12737
G1 X103.614 Y105.917 E.11523
G1 X105.893 Y103.638 F9000
G1 F9547.071
G1 X108.515 Y101.016 E.1163
G1 X104.449 Y101.016 E.1275
G1 X104.856 Y101.254 E.0148
G1 X105.272 Y101.635 E.01767
G1 X105.585 Y102.078 E.01701
G1 X105.797 Y102.574 E.01692
G1 X105.901 Y103.104 E.01696
G1 X105.893 Y103.598 E.01549
G1 X106.223 Y102.775 F9000
G1 F9547.071
G1 X107.605 Y101.393 E.0613
G1 X105.558 Y101.393 E.06417
G1 X105.895 Y101.863 E.01813
G1 X106.145 Y102.428 E.01938
G1 X106.214 Y102.736 E.00989
G1 X106.475 Y101.812 F9000
;WIDTH:0.632816
G1 F6102.77
G1 X106.401 Y101.812 E.00362
G1 X106.364 Y101.876 E.00362
G1 X106.401 Y101.94 E.00362
G1 X106.475 Y101.94 E.00362
G1 X106.492 Y101.911 E.00165
G1 X101.743 Y114.688 F9000
;WIDTH:0.395627
G1 F10206.768
G1 X101.427 Y114.987 E.01276
G1 X101.099 Y115.372 E.01485
;WIDTH:0.431451
G1 F9265.682
G1 X101.042 Y115.439 E.00282
G1 X100.934 Y115.985 E.01798
;WIDTH:0.38292
G1 F10588.235
G1 X100.888 Y116.509 E.01486
G1 X100.898 Y116.991 E.01365
